X:1
T:"The American"
T:"The American"
T:Op. 96, No. 12, MVT I-IV
T:Antonin Dvořák
C:Antonin Dvořák
%%score [ ( 1 2 ) ( 3 4 ) ( 5 6 ) ( 7 8 ) ]
L:1/8
Q:1/4=112
M:4/4
K:F
V:1 treble nm="Violin I"
V:2 treble 
V:3 treble nm="Violin II"
V:4 treble 
V:5 alto nm="Viola"
V:6 alto 
V:7 bass nm="Violoncello"
V:8 bass 
V:1
"^Allegro ma non troppo" z!pp! (f/a/ !//-!f3 a3) | (!//-!f2 a2 !//-!f2 a2) |: %2
 (!//-!f2 a2 !//-!f2 a2) | (!//-!f2 a2 !//-!f2 a2) | (!//-!f2 a2 !//-!f2 a2) | %5
 (f/a/f/a/!<(! f/a/f/a/) (f/a/f/c/ A/F/A/c/)!<)! |!mf! (f a2!<(! c') (d'>.f' .d'2)!<)! | %7
 (c'>a fg/a/) c'4 | !>!c>!<(!.d .f/.d/ z !>!c>.d .f/.d/ z!<)! | %9
!<(! (c/f/a/c'/)!<)!!>(! (c'>a!>)! f3) z | z4!f! (c/f/a/c'/) c'>.g | %11
 f z z2 (c/f/!<(!a/c'/) c'>.g!<)! | f z z2 (c/d/!<(!f/a/)!<)! a>.e | %13
 d z z2 (c/d/!<(!f/a/)!<)! a>.e |!ff! (d/f/a/).d'/ (d/f/a/).d'/ (d/f/a/).d'/"_dim." (d/f/a/).d'/ | %15
"^dim." !>!D8- | D2 z2 z4 |!p! (F4 B,4) | (.D.D.D.D) (.D.D.D.D) | %19
!<(! (d2- d/e/f/a/) (a2- a/g/f/d/)!<)! |"_cresc." (c f2!<(! a) (c'>.f' d'2)!<)! | %21
!f! (c'a fg/a/) c'4 |!>(! (c'_a _ea/b/) c'4!>)! | %23
 .c'(_a/c'/) .c'"_dimin."(a/c'/) .c'(a/c'/) .c'(a/c'/) |!pp!!>(! T^d'8!>)! | %25
 .e'/.e'/ z/!p! .d'/ .c'/.c'/ z/ (=b/ a=g e2) | (ag e2) (ag e2) |!<(! (eg)(Pgf) (Ped)!<)!(PcA) | %28
 .A/.A/ z/ .c/ .=B/.B/ z/ .E/ .A/.A/ z/ .c/ .=B/.B/ z/ .E/ | (e^g a=b) (c'd' =g/e/a/g/) | %30
 (c'd' g/e/a/g/) (c'd' g/e/a/g/) | (c'!>!d' c'!>!d') (c'!>!d' c'!>!=b) | %32
 (a!>!=b"_cresc." a!>!b) (a!>!b a!>!f) | e/e/!>(! z/ d/ c/c/ z/!>)! A/ e4 | %34
 e/e/ z/ d/ c/c/ z/ A/ e4 |!ff! (e2 f2) (e2 f2) |!<(! (e2 f2) (gfed)!<)! | %37
 (A2!>(! =B2) (A2 =GE)!>)! |!p! (A2!>(! =B2) (A2 =GE)!>)! |!pp! A8- | A2!sfz!!>(! _B4 F2!>)! | %41
!p!"^dim."!>(! E8- |[Q:1/4=96]"^rit." E8!>)![Q:1/4=80] | %43
!ppp![Q:1/4=112]"^in tempo" (!tenuto!A2 !tenuto!=B2) (^c2 .B.A) | (=B^f/B/ .A.^F) F4 | %45
 (=B!<(! A2 ^F) .E/.E/.A/.^c/ !>!e2!<)! |!>(! ([d^f]3 [^Fd])!>)! (^c/e/ !>!e3) | %47
!pp! (!tenuto!A2 !tenuto!=B2) (^cd/c/ BA) | (5:4:5(=B/^f/^c/B/A/ ^F).F F4 | %49
 (=B!<(! A2 ^F) !wedge!E/!wedge!E/!wedge!A/!wedge!^c/ e2!<)! |!f! ([d^f]3 [^Fd])!>(! [^E^c]4!>)! | %51
 (^c2 d2 =e2) (d/=B/).B |"_dim."!>(! ^f8!>)! |!pp! (^c2 d2 e2) !wedge!d/!wedge!=B/!wedge!B | %54
!<(! =g8!<)! |!<(! (^g2 =b2)!<)!!f! (3(a^f.e) e2 | ([^Fd]2 [d^f]2){/^c} (3(fe)(.c [Ec]2) | %57
!>(! ([D=B]2"^dim." [Ge]2) ([^Fd] [DB]2) [DB]!>)! | %58
[Q:1/4=96]"^molto rit."!>(! ((A =F2) F[Q:1/4=80] F E2!>)![Q:1/4=72] D/!p!=B,/) | %59
[Q:1/4=112]"^in tempo" A,2 z2 z4 | z8 |!pp! (e>=cA>c e4) | (e>=cA>c e4) :| %63
!pp! (!//-!_e2 c2 !//-!e2 c2) | (!//-!_e2 c2 !//-!e2 c2) | (!//-!_e2 c2 !//-!e2 c2) | %66
 (!//-!_e2"_cresc." c2 !//-!e2 c2) |!<(! (^c =e2 .^g) (a>^c' a2)!<)! | %68
!mf! [^c^g] z!<(! [c^f] z [ce] z!<)! [^G^d] z |!f! (^c3!<(! ^d/c/) (^G ^g2) G!<)! | %70
 [^c^g] z [c^f] z [ce] z [^G^d] z |!ff! !>!^c>^d !>!e/.c/ z z/ !>!e^f/ !>!a/.^g/ z | %72
 !>!^g>a !>!^c'/=b/ z ^g/^f/ z"_dim." e/^c/ z |!mf! (^f3 e)!>(! (^d2 (3^c=B^G)!>)! | %74
!p! (^c3!>(! =B) (^G2 (3E^F^^F)!>)! |!pp!"_molto cresc." (.^G.G.G.G) (.G.G.G.G) | %76
 (^G2!f! =B2!>(! A2 G2)!>)! |!ff!"_dim."!>(! !///![A,^F]8!>)! |!p!!>(! !///![A,^F]8!>)! | %79
 [A,^F]!pp! !tenuto![FA]2 !tenuto![FA]/[FA]/- [FA] !tenuto![FA]2 !tenuto![FA]/[FA]/- | %80
 [FA] [^FA]2 [FA]/[FA]/- [FA] [FA]2 [FA]/([FA-]/ | %81
 [DA]) [DA]2 [DA]/[DA]/- [DA] [A,A]2 [A,A]/[A,A]/- | %82
 [A,A] [A,A]2 [A,A]/[A,A]/- [A,A] [A,A]2 [^FA]/[FA]/ |!pp!!<(! ([^FA]2!<)!!>(! [d^f]4 [FA]2)!>)! | %84
 [^FA]4 z2 [FA]2 |!<(! ([^FA]2!<)!!>(! [d^f]4 [FA]2)!>)! | [^FA]4 z2 [FA]2- | %87
 [FA] !>![A^f]2"_cresc." (([^FA] [G=B])) !>![Bg]2 (([GB] | %88
 [^FA]))!<(! [A^f]2 (([FA] [G=B])) [Bg]2 [GB]!<)! |!ff! !>![cg]8 | !>![cg]8 | %91
!f! !>!c>d f/e/ z !>!e>a g/e/ z |!<(! (e/f/g/c'/)!<)! !>!c'>.e (e/f/g/c'/) !>!c'>.e | %93
 (e/f/g/c'/) !>!c'>.e !>!g>.c !>!e>.G | c z z2 z4 | z8 | z8 |!pp! !>!f2 !>!_a2 !>!f2 !>!_e2 | %98
 !>!c2 .f._e !>!c2 ._A.G | (_A/B/c/).c/ !//!c2"_cresc." (f/g/_a/).a/ !//!a2 | %100
!<(! (_a/b/c'/).c'/ !//!c'2 (f'/g'/_a'/).a'/ !//!a'2!<)! | %101
!ff! (f'/g'/_a'/).a'/ f' z (_a/b/c'/).c'/ c' z | (f/g/_a/).a/ a z (a/b/c'/).c'/ c' z | %103
 (_a/b/c'/).c'/ c' z (f/g/a/).a/ a z | (c/=e/f/).f/ f z (C/E/F/).F/ F z |!f! (d2 gf) [Dd]4 | %106
 (c2 B_A) F4 | ([DB]2 _A"^dim."F) ([DB]2 AF) |!p! (B2!>(! _AF B2 AF)!>)! | B4 _A4 | F4 f4 | %111
!ppp! (!//-!f2 =a2 !//-!f2 a2) | (!//-!f2 =a2 !//-!f2 a2) | (!//-!f2 =a2 !//-!f2 a2) | %114
 (!//-!f2!<(! a2) (f/a/f/c/ A/F/A/c/)!<)! |!mf! (f a2!<(! c') (d'>.f' d'2)!<)! | %116
!mf! (c'a!<(! fg/a/)!<)!!>(! c'4!>)! | !>!c>d f/d/ z !>!c>d f/d/ z | %118
!<(! (c/f/a/c'/)!<)!!>(! (c'>a f3)!>)! z | (c/f/a/c'/) (c'>a f3) z | %120
!p!"_staccato" (.c/.f/.a/.c'/) (c'>.a .f) z z2 | (.F/.A/.c/.f/ !>!f>.c .A) z z2 | %122
!pp! (F/_A/"_leggiero"_d/f/ f>.d) (A/d/f/_a/ a>.f) | (B/_d/_g/b/ b>.d) (B/d/_e/b/ b>.d) | %124
 (_A/_d/f/_a/ a>.f) (A/d/"_cresc."_e/a/ a>.d) |!mf! (_A/c/_e/_a/- a>.c) (A/c/e/a/ a>e) | %126
 (_A2 _d2) (_e2 _f2) |!>(! =e6!>)! (^f=g) |!p! (g2 d2) z4 |!pp! (G2- G/B/d/g/) (d2- d/c/B/_G/) | %130
 F z z2 z4 | (B2-!<(! B/_d/f/b/) (f2- f/_e/d/B/)!<)! | (_A!<(! _d2 f) (_a>_d') a2!<)! | %133
 (_a!<(!f _d_e/f/)!<)!!f! (a4 | ^g)(=e =B!>(!e/^f/ g4)!>)! | %135
!p! ._a/.a/(f/a/) a z!>(! .a/.a/(f/a/) a!>)! z |!pp! !trill(!T=b8 | %137
 c'/c'/ z/ b/ (_a/f/) z/ f/!p! (f_e c2) | (f_e/).e/ c2 (fe/).e/ c2 | %139
 (c_e)(Ped)!<(! (PcB)(P_AF)!<)! | F/F/ z/ _A/ G/G/ z/ C/ F/F/ z/ _A/ G/G/ z/ C/ | %141
 (c=e) (f=a) ((ab) (_e/=d/f/e/)) | ((ab) (_e/=d/f/e/)) ((ab) (e/=d/f/e/)) | %143
!p! (_a!>!b)!<(! (a!>!b) (a!>!b) (a!>!g)!<)! | (f!<(!!>!g) (f!>!g) (f!>!g) (f!<)!!>!_d) | %145
{/c} c'/c'/ z/ b/ _a/a/ z/ f/ c'4 |{/c} c'/c'/ z/ b/ _a/a/ z/ f/ c'4 |!f! (c'2 _d'2) (c'2 _d'2) | %148
 (c'2!<(! _d'2) (_e'_d'c'b)!<)! | (f2 g2 f2 _ec) | (f2!>(! g2 f2 _ec)!>)! |!p! f8- | %152
!<(! f2!<)!"_dim."!>(! (_g4 _d2)!>)! |!>(! (c8!>)! |[Q:1/4=80]"^ritard."!>(! _A6)!>)! G2 | %155
!pp![Q:1/4=112]"^in tempo" (F2 G2) (=A2 .G.F) | (Gd/G/ .F.D) D4 | (G2 FE)!<(! (CFAc)!<)! | %158
!mf! (d3!>(! c) (A/c/ !>!c3)!>)! | z!p! A/A/ z B/B/ z c/c/ z c/c/ | z d/d/ z e/e/ z f/f/ z d/d/ | %161
 z f/f/ z!<(! f/f/ z f/f/ z f/f/!<)! | ([d-f]2"_cresc." [dg]d) (cfac') |!f! [db]4 [ca]4 | %164
 (([d-f]2 [dg])d) (cfac') | [db]4 [ca]4- | %166
!ff![Q:1/4=80]"^molto rit." [ca] c'2"_dim."[Q:1/4=72] (f'- f'[Q:3/16=80]a!>(! g2)!>)! | %167
"^dolce"[Q:1/4=80]"^in tempo" (f4 ag!>(!fd) | (cA- A/c/A/F/)!>)! (D2- D/C/F/G/) | %169
 (Acfd)!p! (d2 A) z |[Q:1/4=96]!>(! (c2 F)!>)! z!pp! (A4- |[Q:1/4=72]"^poco rit." A4 G4) | %172
[Q:1/4=112]"^in tempo" F4"_cresc." TA4 |!<(! Tc4 Tf2 Ta2!<)! | %174
!ff!!8va(! (c'/!<(!f'/a'/c''/) (c''>!<)!a' f')!8va)! z z2 |!<(! (c/f/a/c'/)!<)! (c'>a f) z z2 | %176
!<(! (C/F/A/c/)!<)! (!>!c>A F) z!ff!!ff! [Af] z | !>![Af]6 z2 |][M:6/8][Q:1/8=112]"^Lento." z6 | %179
 z6 |!mp!"_molto espressivo"{/A} a3- a(gf/d/) | d3-!<(! d/A/(A/d/)(d/e/)!<)! | %182
 (f2 d)!>(! (Pc2 A/c/)!>)! |!p! d3 z!<(! (d/4A/4=B/4^c/4 (5:4:5d/4e/4f/4g/4^g/4)!<)! | %184
!p!{/A} a3-!>(! a(gf/d/)!>)! | d3-!<(! d/A/(A/d/)(d/e/)!<)! | %186
!mf! g2 f/e/ [ce]2 (3(!arpeggio![Fd]/c/A/) |"_dim." [Ec-]3!>(! c z z!>)! | %188
!pp! (d/f.f).f/ (d/f.f).f/ | (d/f.f.f/) (d/f.f.f/) | (d/f.f).f/ (d/f.f).f/ | %191
 (d/f.f.f/)"^cresc." (d/f.f.f/) | (d/f.f!>(!.f/) (d/f.f.f/)!>)! | %193
 (d/!<(!f.f.f/) (d/f)(f/g/a/)!<)! |!mf! (c/e.e.e/)"_cresc." (c/e)(e.c'/) | %195
!>(! (c/e.e!>)!.e/)!p! (c/e.e.e/) |!pp! ([Bg]2 f/e/) [Bg]2 (3(f/a/e/) | %197
"_espressivo" [Bg]3 z z!p! g | ([Bg]2!<(! f/e/) g2 ([Af]/4a/4)!<)!(a/4e/4) | %199
!<(! [Bg]3"_molto cresc." ([Bg]2 [=B^g])!<)! |!f! !>![ca]!>!c'b/a/!>(!({/D} gfd)!>)! | %201
!p! d3-!<(! d/A/(A/d/)(e/f/)!<)! |"_cresc." a3-!<(! a/f/(f/g/)(a/c'/)!<)! | %203
!mf! c'3!<(! (d'g'!<)!!f!b) | (b/a/ c'2-!>(! c'/)(!>!b/!>!g/!>!_e/"_dim."!>!g/!>!b/)!>)! | %205
!>(! a3!>)!!p! (gfd) | (c2-!>(! c/a/)"_dim." [ca]3!>)! |!pp! [Af]3- [Af] (A/c/)(c/A/) | %208
!p! !trill(!TB6{AB} |!<(! (Bef/e/)!<)!!f! (g!>(!e'>g)!>)! |!pp!"_cresc." Tb6{ab} | %211
 (be')!<(!(f'/"_cresc"e'/) (e'f'>)f'!<)! |!f! (f'a')(g'/f'/) !>!e'!>!d'!>!b | %213
!>(! [=fa]3- [fa][fa]!>)![fa] |!<(! (c'a)f' f'2 f'!<)! |!f! a'3!<(! (b'2 d')!<)! | %216
 (d'/c'/ag/f/)"^dim." (_e2- e/g/) |!>(! f3-!>)!!p! f(dg) |!>(! (A2 c)!>)!!pp! [Ec]3 | %219
 [Fc]3- [Fc]/ F/(A/c/)(c/f/) |!mp!!<(! a3- a(g!<)!^f/d/) |!f!!>(! a3- a!>)! z!p! (A/a/) | %222
 a3-!<(! a(g^f/d/)!<)! | a3-!>(! a z a!>)! | d'3-!<(! d'c'b/g/!<)! |!f!!>(! g3-!>)! g z"_dim." g | %226
!pp! d'3-!>(! d'(c'b/g/)!>)! |!pp! g3- g z g | b3-!<(! b(ag) | (a>g)!<)! (3(g/f/d/) d2 d | %230
"_cresc." !tenuto!g(a>d') !tenuto!g(a>d') | d'3!<(! ^d'3!<)! | %232
!ff! !>!e'!>!c''!>!=b' !>!a'!>!g'!>!a' | e'3- e'2 z | (!>!e'!>!a'!>!g') (!>!e'!>!d'!>!e') | %235
({/c} c'3- c'"_dim."=bc') | c'3-!p! c'(=bc') |"_dim." c'3-!pp! c'(=bc') | c'3- c'(=bc') | %239
 a3-!<(! a(g^f/d/)!<)! |"^cresc." a3- a z!p! (A/a/) | a3-!<(! a(g^f/d/)!<)! | %242
!f! a3-!<(! a z a!<)! |!ff! d'3- d'(ba/f/) |!>(! g3- g!>)! z!p! g |!pp! d'3-!>(! d'(ba/f/)!>)! | %246
!pp! g3- g z!<(! g!<)! |"_cresc." b3-!<(! b(ag)!<)! |!<(! a>g (3(g/f/d/) d2 d!<)! | %249
 g(a>!<(!d') g(a>d')!<)! | !>!g3"_cresc." !>!^g3 |!f! (af')!>!e' !>!d'>!>!=c'!>!d' | a3- a2 z | %253
 (ad')!tenuto!c'"_dim." (a^ga) |!mp! a3 (fef) | f3"^dim."!>(! (fef)!>)! | f3!>(! (fef)!>)! | %257
!pp! f3 (fef) | f3[Q:1/4=20]"^ritard." (f!tenuto!e!tenuto!f) | %259
[Q:1/4=35]"^in tempo" [Fd][Fd] z"^pizz." [Fd][Fd] z |"^arco" [FA][FA] z"^pizz." [FA][FA] z | %261
"^arco" [FA][FA] z"^pizz." [FA][FA] z |"^arco" [FA][FA] z"^pizz." [FA][FA] z | %263
"^arco" [A,A][A,A] z"^pizz." [A,A][A,A] z |"^arco" [A,A][A,A] z"^pizz." [A,A][A,A] z | %265
"^arco"!>(! !>!=B,6!>)! |!p!!>(! C3 _B,3!>)! |"^pizz."!pp! FF z FE z | FF z FE z | %269
 FF z"_cresc." FF z | FF z"_dim." FF z | FF z FF z | F2 z F2 z | F2 z F2 z |"^arco" !fermata!F6 |] %275
[M:3/4][Q:3/4=72]"^Molto vivace." z6 | z6 | z6 | z6 |!p! c6 | c6 | c6- | c2 z2 z2 | %283
!f! c' z !>!f'3 d' | c'd' f'2 z2 | c' z !>!f'3 d' | c'd' a2 z2 |!pp! c'6 | c'6 | c'6- | c'2 z2 z2 | %291
!ff! c'd' f'2 z2 | z6 |!>(! cd f2!>)! z2 | z6 |!p! (a'2 f'2) z c' | (c'2 g'f') z a' | %297
 ((a'2 f'2) e'd' | f'2) z2 z2 | (a'2 f'2) z c' | (c'2 g'f') z a' | (a'2 f'2 e'd') | f'2 z2 z2 | %303
 z2!p! [da][da] [da] z | z2!<(! [Fc][Fc] [Fc]!<)! z | z6 | z6 | z2!ff! c'd' !tenuto!f'2 | %308
 z2 c'd' !tenuto!f'2 | z2 c'd' !tenuto!f'2 | z2 c'd' !tenuto!f'2 | z2!ff! c'd' f'2 | z2 c'd' f'2 | %313
 z2 (c'd' b2) | .a2 .f2 z2 |!mf![Q:1/4=120]"^Poco meno mosso." (c2 f3 d) | (cd f2) z2 | (c2 f3 d) | %318
!>(! (cd A2)!>)! z2 |!p!!>(! Tc6!>)! | Tc6 |[Q:1/4=96]"^ritard."!>(! !trill(!Tc6{=Bc}!>)! | %322
!pp![Q:1/4=80] (cdcG)"^Fine." !fermata!F2 ||[K:Ab][Q:1/4=216]"^in tempo"!pp! (c2 f2 g2 | %324
 a2 g2 f2) | (a2 c'2 b2 | a2 g2 f2) | (e2 f2 g2 | a2 b2 =b2) | (c'2 a2 f2 | e4) z2 | %331
!mf! !>!az/g/gz/f/ f2 | !>!az/g/gz/f/ f2 | !>!az/g/gz/f/ f2 | !>!az/g/gz/f/ f2 | !>!az/g/gz/f/ f2 | %336
!f! !>!az/g/gz/f/ f2 | !>!az/g/gz/f/ f2 | !>!ez/d/dz/c/ c2 | fz/e/"_dim."ez/d/ d2 | %340
 _fz/"_dim."e/ez/d/ d2 |!>(! _fz/e/ez/d/ d2 | ez/d/dz/c/ c2!>)! |!p! Az/G/Gz/F/ F2 | %344
 d!>(!z/c/ cz/=B/ Bz/_B/ | Bz/=A/ Az/!>)!_A/!pp! Az/G/ | Gz/F/ F2 z2 | z6 | z6 | z6 | z6 | z6 | %352
 z6 | z6 | z6 |!f!"_molto espressivo" c'6 | (f'4 d'2) | (c'4 d'2) | f'6 | c'6 | (f'4 d'2) | %361
 (c'4 d'2) | a4 z2 |"_dim."!>(! a6!>)! |"_dim." (b4 a2) |!>(! (g4 a2) | c'6!>)! | (a6 | (b4 g2)) | %369
 (f4 c2 | A4 F2) ||[K:F] z6 | z6 | z6 | z6 |!p! vD6 | vD6 | (uD6- | DCFGAc) |!<(! (vc2 !>!f3 d) | %380
 .c.d f2!<)! z2 | (c2 !>!f3 d) | .c.d A2 z2 |!pp! Pd'4 (g'd') | Pd'4 (g'd') | Pd'4 (g'd') | %386
 d'4 z2 | z2!p! aa a2 | z2!mf! cc c2 | z2!f! a'a' a'2 | z2!ff! c'c' c'2 |!f! (a'2 f'2) z c' | %392
 (c'2 g'f') z a' | (a'2 f'2) (e'd' | f'2) z2 z2 | (a'2 f'2) z c' | (c'2 g'f') z a' | %397
 (a'2 f'2) (e'd') | f'4 z2 |!f! c'd' f'2 z2 |!mf! c'd' a2 z2 | c"_dim."d f2 z2 |!p! cd A2 z2 | %403
 z2!p! c'd' !tenuto!f'2 | z2 c'd' !tenuto!f'2 | z2 c'd' !tenuto!f'2 | z2 c'd' !tenuto!f'2 | %407
 z2 c'd' !tenuto!f'2 | z2 c'd' !tenuto!f'2 | z2 (c'd' b2) | .a2 .f2 z2 |!ff! (c'2 f'3 .d') | %412
 (c'd' !>!f'4) | (c'2 !>!f'3 .d') | (c'd' a4) |!p! Pd'4 (g'd') | Pd'4"^dim." (g'd') | Pd'4 (g'd') | %418
[Q:1/4=120]"^molto rit."!>(! d'3 (e'[Q:1/4=112]f'g')!>)! |!pp![Q:1/4=216]"^in tempo" a'6- | a'6- | %421
 a'6- | !fermata!a'6 ||[K:Ab]!pp!!8va(! (3:2:1!/!c'3 (3:2:1!/!f'3 (3:2:1!/!g'3 | %424
 (3:2:1!/!a'3 (3:2:1!/!g'3 (3:2:1!/!f'3 | (3:2:1!/!a'3 (3:2:1!/!c''3 (3:2:1!/!b'3 | %426
 (3:2:1!/!a'3 (3:2:1!/!g'3 (3:2:1!/!f'3 | (3:2:1!/!e'3 (3:2:1!/!f'3 (3:2:1!/!g'3 | %428
 (3:2:1!/!a'3 (3:2:1!/!b'3 (3:2:1!/!=b'3 | (3:2:1!/!c''3 (3:2:1!/!a'3 (3:2:1!/!f'3 | e'4!8va)! z2 | %431
!f! (c'6 | f'4 d'2) | (c'4 d'2 | f'4) z2 | (c'6 | f'4 d'2) | (c'4 d'2 | a4) z2 | a6 | (b4 a2) | %441
 (g4"^dim." a2 | c'6) | (a4- a=a |!>(! b4 g2)!>)! |!p! f6 |!>(! c4!>)! z2 | %447
"^staccato"!ppp! !tenuto!c2 (.c.c.c.c) | !tenuto!f2 (.f.f.d.d) | !tenuto!c2 (.c.c .d.d) | %450
 (.f.f) !tenuto!f2 z2 | !tenuto!c2 (.c.c.c.c) | !tenuto!f2 (.f.f.d.d) | !tenuto!c2 (.c.c.d.d) | %454
 (.A.A) !tenuto!A2 z2 |!ff! cc ff gg | aa gg ff | aa c'c' bb | aa gg ff | =ee ff gg | aa bb =bb | %461
 c'c' aa ff | cc =BB cc | cc"_molto" =BB cc | d"_dim."d cc a!>(!a | ff _ff!>)! ee |!p! dd cc =BB | %467
!>(! cc aa gg!>)! |!pp! ff d'd' =ee | ff f'f' ff | f'f' f2 z2 || %471
[K:F][M:2/4][Q:1/4=152]"^Vivace ma non troppo." z4 | z4 | z4 | z4 |!mf! !>!c>.d .f.d | .c.A .F.D | %477
 D>.D .D.D | .D.D.D .c | !>!c>.d .f.d | .c.A .F.D | D>.D .D.D | .D.D.D .c | !>!c>.d .f.d | %484
 .c.A"_cresc." .F.D | !>!c>.d!<(! .f.d | .c.A .F.D | !>!c>.d .f.d!<)! |!mf! !>!c>.d .f!<(!.d | %489
 !>!c>.d .f.d!<)! | !>!fd !>!fd | !>!fc BG | !>!fc BG | !>!fc BG | !>!fc BG | F2 z2 | z4 | z4 | %498
 z4 |!p! (a2 c') z | z4 | (a2 c') z | z4 | z2!>(! (c'>d'!>)! | c')!pp!.a.f.d | .c.A (c2 | %506
 A) z z!<(! (f | !>!g).f!<)!!>(! d2-!>)! | d!pp!(cBf) | (c2 A) z | z2 (c'>d') | (c'!pp!.a).f.d | %512
 cA (!>!c2 | A2) z!<(! (f!<)! |!mf! e>).f!<(! .e.=B | e>f e=B | e>f!<)! e=B |!ff! .A.E .A.E | %518
 .A.E .A.E | A z z2 | z4 | z2!pp! (c'>d' | c').a.f.d | .c.A!>(! (c2 | A2)!>)! z (f | g).f d2- | %526
 d(cBf) | (c2 A) z | z2!>(! (c'>d'!>)! |!p! c').a.f.d |!<(! .c.A (c2!<)! |!<(! A2) z a!<)! | %532
!mf! g>a gd | g>a"_cresc." gd | g>a gd |!ff! !>!cG !>!cG | !>!cG !>!cG | c z z2 | z4 | %539
!pp!"_dolce"!<(! (_a4- | a2!<)!!p! f2) | (_e2!>(! c2-!>)! | c2 _e2) |!<(! (_e2 f2 | %544
 f_e.[f_d']z/.[ec']/)!<)! |!>(! [_ec']4- | [ec']!>)! z!p! c'2- | c'2 g2- | g(f_ec) | g4- | g2 g2 | %551
!<(! (c'2 _e'2- | e'2 c'2)!<)! | (b2!>(! f2- | f2) (3(fg_a)!>)! | b4- | b z!pp! _e2 | (_a4- | %558
 a2 f2) | (_e2 c2- | c) z!pp! _e2 |!<(! ([_ec']4- | [ec']2 [c_a]2) | (([_eg]2 [_df]2-!<)! | %564
 [df]2)!mf! [_df]2) | ([c_a]2 _e2- | ec"_dim."_ec) |!>(! .[_E_e]._A ([Ec]2- | [Ec]2 [_DB]2!>)! | %569
 .[C_A]) z!pp! !>!_E>.F | _E z !>!E>.F | _E z !>!E>.F | _E z !>!E>.F | (G>_A G).D | (G>_A G).D | %575
 (G>_A G).D | (G>_A G).D | _D4- | D4- | D4- | D4 |!p! (F/G/F/C/) (F/G/F/C/) | %582
"_cresc." (_A/B/A/F/) (A/B/A/F/) |!<(! (c/_d/c/_A/) (c/d/c/A/) | (f/g/f/A/) (_a/b/a/f/)!<)! | %585
!f! [G=ec'] z [_Afc'] z | [G=ec'] z [_Afc'] z | [G=ec'] z [_Afc'] z | [G=ec'] z [_Afc'] z | %589
 [Gec'] z z2 | z4 | z4 | z4 | z2!pp! (c'>d' | c').a.f.d | .c.A (!>!c2 | A2) z (f | g).f d2- | %598
 d(cBf) | (c2 A) z | z2"_cresc." (c'>d' | c')!<(!.a.f.d | .c.A (c2 | A2)!<)! z!mf! (f | %604
 e3)!<(! (g | f3) (a | g3) (b | _a3)!<)! (c' |!f! [_e=b]3) [_ec'] | !>![_e=b]3 [ec'] | %610
 [_e=b] z [ec'] z | [_e=b] z [ec']"_cresc." z |!<(! [cc'] z [cc'] z | [cc'] z [cc']!<)! z | %614
 !/!c'!/!=d'!<(! !/!=e'!/!f' | !/!g'!/!a' b'c''!<)! | f' z!ff! !>!f'd' | !>!c'a !>!fd | !>!d>d dd | %619
 d z !>!f'._d' | !>!c'._a !>!f._d | !>!_d>d dd | _d z z"_dim."!p! _D |!p! _D>D DD | _D z z2 | %625
!pp! (_D4 | F4 | _G4 | F4) | (_A4- | A4- | A2 _G2- | G2 F2) | (_D4 | _G4- | G4 | =G4) | (_A2 =A2- | %638
 A4) | (B2 =B2 | =d3 c | F) z!mf! !>!f>d | .c.A .F.D | .F z z2 | z2 z"_dim." F | A z z F | %646
 A z z A | A z A z | A z A z ||!pp![Q:1/4=112]"^Meno mosso" (A4 |!<(! d4)!<)! |!>(! (e4!>)! | %652
 d2 A2) |!<(! (A2 e2- | e2!<)! d2) |!>(! (c4- | c2!>)! =B2) |!pp! (A4 | !tenuto!d2 !tenuto!d2) | %659
 (f2!<(! e2- | e2 dA)!<)! |!<(! (A2 e2-!<)! |!>(! e2 d2)!>)! | (3(c=BA!p! A2-) |!>(! A2 =B=G!>)! | %665
!pp! A4 |!<(! (3AAA!<)!!>(! A2-!>)! | A2 z2 | z4 |!pp!"_leggiero" .A!p!.c.e!>!a- | a.f.e.d | %671
 !>!a>.A .AA- | A(.=B.c.d) |!<(! (.c.d.c.d) | (.e.=f.^f.^g)!<)! | !>!a>.e .e.e | %676
!>(! .e.f .d.e!>)! |!p! .c.A.ca- |!<(! a.A.d.a!<)! | .^d.A.e"_cresc."a- | a(A/=B/ c).d | %681
 .c(c/d/ c)(c/d/ | e).=f.^f.^g | !>!a>e ee |!>(! f>d d!>)!=B |!pp! (c2 =B2 | =d2 c2) | [ce]4- | %688
 [ce]4 |[Q:1/4=152]"^Tempo I."[Q:1/4=152]"^Più mosso." E z !>!=B>.c | .=B.^G .G.E | .E z !>!=B>.c | %692
 .=B.^G .G.E | .E z !>!c>.d | .c.A .A.E | .E z !>!c>.d | .c.A .A.E | E z d>e |"_cresc." dE d>e | %699
 dE d>e |!f! d>"^molto cresc."e d>!<(!e |!f! d>e d>e |!f! d>e d>e |!f! d>e d>e!<)! | %704
!ff! f z (c'>d' |!>(! c').a .f.d!>)! | .c.A (c2 | A2) z!<(! (f | g).f!<)!!>(! d2-!>)! | d(cBf) | %710
 (c2 A) z | z2 (c'>d' | c').a.f.d | .c.A (c2 | A2) z f |!mf! !>!e>f e=B | e>"_cresc."f e=B | %717
!<(! e>f e!<)!=B |!f! AE AE | AE AE |!mp! A4- |!>(! (A4!>)! | _A) z!ppp! (_a>_b | _a).f ._d.B | %724
 ._A.F (!>!A2 | F2) z!<(! (_d | _e)!<)!!>(!._d B2-!>)! | B!pp!(_A_G_d) | (_A2 F) z | z2 (_a>_b | %730
 _a).f ._d.B | ._A.F (A2 | F2) z (_d | c).B _G2- | G.F (_E2- | EB_E)!<(! (B!<)! |!pp! c).B _G2- | %737
 G2 z!<(! (B!<)! |!pp! _d).c _G2- | G2 z (_d |!>(! ^c)=A=G!>)! (c | %741
!>(! ^c).A!>)!"^cresc.".G!<(! (c!<)! | =ed).=A!<(!!<(! (d!<)! | ed).G!<(! (e!<)! | %744
 =fd).G!<(! (e!<)! | f!<)!d).^G!f! f | (=g2 =f2) |"^dim."!>(! (d2 =c2) | (A2 =F2)!>)! | (D2 E2) | %750
"^sul G""_espressivo"!p![Q:1/4=112]"^Meno mosso." F4- | F2 D2 | (C2 A,2- | A,2 C2) |!<(! (C2 D2- | %755
 D)(CB)z/.A/!<)! |!>(! [FA]4-!>)! | [FA] z A2 |!pp! (A2 E2- | E)(DCA,) | E4- | E2 E2 | %762
!<(! (A2 c2- | c2 A2)!<)! | (G2 D2- |!>(! D2) (3(DE)!>)!.F |!p! G4- | G z g2 |!pp!!<(! (f4- | %769
 f2 d2)!<)! | (c2 A2- | A2)!<(! (c2!<)! | [ca]4- | [ca]2)!<(! ([df]2 | [ce]2!<)!!mf! [Bd]2- | %775
 [Bd]2)"_dim." ([Bd]2 | [Af]2!>(! [Ac]2) | cA!>)!d(A |!p! [Ac])!>(!(F [CA]2-!>)! | %779
"_dim." [CA]2 [B,G]2) | [A,F] z uc>d | !>!c>A .F.D | .C z uc>d |!>(! .c.A .F.D!>)! | .C z u_d>_e | %785
"_più cresc." ._d._A .F._E | ._D z u_d>_e | ._d._A !>!d>._e | ._d._A!f![Q:1/4=152] f>(_g | %789
 f>)(_g!<(! f>)(g | f>)(_g!<)! f>)=g |!ff! !/!=a!/!b !/!c'!/!f | !/!a!/!b !/!c'!/!f | %793
 !/!a!/!b !/!c'!/!f | !/!a!/!b !/!c'!/!e | (3(f!>(!f').f'!p! !>!f'2!>)! | (3(ff').f' !>!f'2 | %797
 (3(ff').f' !>!f'2 | (3(ff').f' !>!f'2 | (3(ff').f' !>!f'2 | (3(ff').f' !>!f'2 | %801
 (3(ff').f'!<(! !>!f'2 | (3(ff').f' !>!f'2!<)! |!f! (3(ff').f' (3(f'f).f | (3(ff').f' (3(f'f).f | %805
!f! (3(ff').f' (3(f'=e').e' | (3(e'_e').e' (3(e'd').d' | (3(_e'd').d' (3(e'd').d' | %808
 (3(_d'c').c' (3(c'b).b | (3(ba).a (3(ba).a | (3(ba).a (3(ba).a | (3(ba).a (3(ba).a | %812
 (3(ba).a (3(_ag).g | f2!ff! f'>g' | f'>e' =a>g | f2 f'>g' | f'>e' =a>g | f2 f'>g' | f'>e' =a>g | %819
 !>!f2 !>!g2 | !>!a2 !>!c'2 | f z!ff! !arpeggio![Fca]2 | z2 !arpeggio![Afc']2 | %823
 z2 !arpeggio![Ddd']2 | z2 !arpeggio![Afc']2 | z2 !arpeggio![Ddd']2 | z2 !arpeggio![Afc']2 | %827
 (3:2:1!/!!>!a3 (3:2:1!/!!>!b3 | (3:2:1!/!!>!c'3 (3:2:1!/!!>!g3 | (3:2:1!/!a3 (3:2:1!/!b3 | %830
 (3:2:1!/!c'3 (3:2:1!/!g3 | (3:2:1!/!a3 (3:2:1!/!b3 | (3:2:1!/!c'3 (3:2:1!/!g3 | %833
 (3(ac').c' (3(c'g).g | (3(ac').c' (3(c'g).g | (3(ac').c' (3(c'g).g | (3(ac').c' (3(c'g).g | %837
!<(! (3fff (3(f^f).f | (3(^fg).g (3(g_a).a | (3(^ga).a!<)!!<(! (3(ab).b | (3(b=b).b (3(bc').c' | %841
 (3(c'_d').d'!<)!!fff! (3:2:1!/!d'3 | (3:2:1!/!_d'3 (3:2:1!/!d'3 | f'2 z2 | [=B=b]2 z2 | %845
 [cc']2 z2 | [GBe]2 z2 | [Af] z !>!f>d | !>!c>A !>!F>D | F z [Af]>[Af] | !>![Af]4 | [FA]4 | %852
 !fermata![FA]4 |] %853
V:2
 x8 | x8 |: x8 | x8 | x8 | x8 | x8 | x8 | x8 | x8 | x8 | x8 | x8 | x8 | x8 | x8 | x8 | x8 | x8 | %19
 x8 | x8 | x8 | x8 | x8 | x8 | x8 | x8 | x8 | x8 | x8 | x8 | x8 | x8 | x8 | x8 | x8 | x8 | x8 | %38
 x8 | x8 | x8 | x8 | x8 | x8 | x8 | x8 | x4 E4 | x8 | x8 | x8 | x8 | x8 | x8 | x8 | x8 | x8 | x8 | %57
 x8 | x8 | x8 | x8 | x8 | x8 :| x8 | x8 | x8 | x8 | x8 | x8 | x8 | x8 | x8 | x8 | x8 | x8 | x8 | %76
 x8 | x8 | x8 | x8 | x8 | x8 | x8 | x8 | x8 | x8 | x8 | x8 | x8 | x8 | x8 | x8 | x8 | x8 | x8 | %95
 x8 | x8 | x8 | x8 | x8 | x8 | x8 | x8 | x8 | x8 | x8 | D3 z x4 | x8 | x8 | x8 | x8 | x8 | x8 | %113
 x8 | x8 | x8 | x8 | x8 | x8 | x8 | x8 | x8 | x8 | x8 | x8 | x8 | x8 | x8 | x8 | x8 | x8 | x8 | %132
 x8 | x8 | x8 | x8 | x8 | x8 | x8 | x8 | x8 | x8 | x8 | x8 | x8 | x8 | x8 | x8 | x8 | x8 | x8 | %151
 x8 | x8 | x8 | x8 | x8 | x8 | x8 | x8 | x8 | x8 | x8 | x8 | x8 | x8 | x8 | x8 | x8 | x8 | x8 | %170
 x8 | x8 | x8 | x8 |!8va(! x5!8va)! x3 | x8 | x8 | x8 |][M:6/8] x6 | x6 | x6 | x6 | x6 | x6 | x6 | %185
 x6 | x6 | x6 | x6 | x6 | x6 | x6 | x6 | x6 | x6 | x6 | x4 x A | x6 | x6 | x6 | x6 | x6 | x6 | x6 | %204
 x6 | x6 | x6 | x6 | x6 | x6 | x6 | x6 | x6 | x6 | x6 | x6 | x6 | x6 | x6 | x6 | x6 | x6 | x6 | %223
 x6 | x6 | x6 | x6 | x6 | x6 | x6 | x6 | x6 | x6 | x6 | x6 | x6 | x6 | x6 | x6 | x6 | x6 | x6 | %242
 x6 | x6 | x6 | x6 | x6 | x6 | x6 | x6 | x6 | x6 | x6 | x6 | x6 | x6 | x6 | x6 | x6 | x6 | x6 | %261
 x6 | x6 | x6 | x6 | x6 | x6 | x6 | x6 | x6 | x6 | x6 | x6 | x6 | x6 |][M:3/4] x6 | x6 | x6 | x6 | %279
 x6 | x6 | x6 | x6 | x6 | x6 | x6 | x6 | x6 | x6 | x6 | x6 | x6 | x6 | x6 | x6 | x6 | x6 | x6 | %298
 x6 | x6 | x6 | x6 | x6 | x6 | x6 | x6 | x6 | x6 | x6 | x6 | x6 | x6 | x6 | x6 | x6 | x6 | x6 | %317
 x6 | x6 | x6 | x6 | x6 | x6 ||[K:Ab] x6 | x6 | x6 | x6 | x6 | x6 | x6 | x6 | x6 | x6 | x6 | x6 | %335
 x6 | x6 | x6 | x6 | x6 | x6 | x6 | x6 | x6 | x6 | x6 | x6 | x6 | x6 | x6 | x6 | x6 | x6 | x6 | %354
 x6 | x6 | x6 | x6 | x6 | x6 | x6 | x6 | x6 | x6 | x6 | x6 | x6 | x6 | x6 | x6 | x6 ||[K:F] x6 | %372
 x6 | x6 | x6 | x6 | x6 | x6 | x6 | x6 | x6 | x6 | x6 | x6 | x6 | x6 | x6 | x6 | x6 | x6 | x6 | %391
 x6 | x6 | x6 | x6 | x6 | x6 | x6 | x6 | x6 | x6 | x6 | x6 | x6 | x6 | x6 | x6 | x6 | x6 | x6 | %410
 x6 | x6 | x6 | x6 | x6 | x6 | x6 | x6 | x6 | x6 | x6 | x6 | x6 ||[K:Ab]!8va(! x6 | x6 | x6 | x6 | %427
 x6 | x6 | x6 | x4!8va)! x2 | x6 | x6 | x6 | x6 | x6 | x6 | x6 | x6 | x6 | x6 | x6 | x6 | x6 | x6 | %445
 x6 | x6 | x6 | x6 | x6 | x6 | x6 | x6 | x6 | x6 | x6 | x6 | x6 | x6 | x6 | x6 | x6 | x6 | x6 | %464
 x6 | x6 | x6 | x6 | x6 | x6 | x6 ||[K:F][M:2/4] x4 | x4 | x4 | x4 | x4 | x4 | x4 | x4 | x4 | x4 | %481
 x4 | x4 | x4 | x4 | x4 | x4 | x4 | x4 | x4 | x4 | x4 | x4 | x4 | x4 | x4 | x4 | x4 | x4 | x4 | %500
 x4 | x4 | x4 | x4 | x4 | x4 | x4 | x4 | x4 | x4 | x4 | x4 | x4 | x4 | x4 | x4 | x4 | x4 | x4 | %519
 x4 | x4 | x4 | x4 | x4 | x4 | x4 | x4 | x4 | x4 | x4 | x4 | x4 | x4 | x4 | x4 | x4 | x4 | x4 | %538
 x4 | x4 | x4 | x4 | x4 | x4 | x4 | x4 | x4 | x4 | x4 | x4 | x4 | x4 | x4 | x4 | x4 | x4 | x4 | %557
 x4 | x4 | x4 | x4 | x4 | x4 | x4 | x4 | x2 _E2- | E4 | x4 | x4 | x4 | x4 | x4 | x4 | x4 | x4 | %575
 x4 | x4 | x4 | x4 | x4 | x4 | x4 | x4 | x4 | x4 | x4 | x4 | x4 | x4 | x4 | x4 | x4 | x4 | x4 | %594
 x4 | x4 | x4 | x4 | x4 | x4 | x4 | x4 | x4 | x4 | x4 | x4 | x4 | x4 | x4 | x4 | x4 | x4 | x4 | %613
 x4 | x4 | x4 | x4 | x4 | x4 | x4 | x4 | x4 | x4 | x4 | x4 | x4 | x4 | x4 | x4 | x4 | x4 | x4 | %632
 x4 | x4 | x4 | x4 | x4 | x4 | x4 | x4 | x4 | x4 | x4 | x4 | x4 | x4 | x4 | x4 | x4 || x4 | x4 | %651
 x4 | x4 | x4 | x4 | x4 | x4 | x4 | x4 | x4 | x4 | x4 | x4 | x4 | x4 | x4 | x4 | x4 | x4 | x4 | %670
 x4 | x4 | x4 | x4 | x4 | x4 | x4 | x4 | x4 | x4 | x4 | x4 | x4 | x4 | x4 | x4 | x4 | x4 | x4 | %689
 x4 | x4 | x4 | x4 | x4 | x4 | x4 | x4 | x4 | x4 | x4 | x4 | x4 | x4 | x4 | x4 | x4 | x4 | x4 | %708
 x4 | x4 | x4 | x4 | x4 | x4 | x4 | x4 | x4 | x4 | x4 | x4 | x4 | x4 | x4 | x4 | x4 | x4 | x4 | %727
 x4 | x4 | x4 | x4 | x4 | x4 | x4 | x4 | x4 | x4 | x4 | x4 | x4 | x4 | x4 | x4 | x4 | x4 | x4 | %746
 x4 | x4 | x4 | x4 | x4 | x4 | x4 | x4 | x4 | x4 | x4 | x4 | x4 | x4 | x4 | x4 | x4 | x4 | x4 | %765
 x4 | x4 | x4 | x4 | x4 | x4 | x4 | x4 | x4 | x4 | x4 | x4 | A F3 | x4 | x4 | x4 | x4 | x4 | x4 | %784
 x4 | x4 | x4 | x4 | x4 | x4 | x4 | x4 | x4 | x4 | x4 | x4 | x4 | x4 | x4 | x4 | x4 | x4 | x4 | %803
 x4 | x4 | x4 | x4 | x4 | x4 | x4 | x4 | x4 | x4 | x4 | x4 | x4 | x4 | x4 | x4 | x4 | x4 | x4 | %822
 x4 | x4 | x4 | x4 | x4 | x4 | x4 | x4 | x4 | x4 | x4 | x4 | x4 | x4 | x4 | x4 | x4 | x4 | x4 | %841
 x4 | x4 | x4 | x4 | x4 | x4 | x4 | x4 | x4 | x4 | x4 | x4 |] %853
V:3
 z4 z!pp! (A/c/ A/c/A/c/) | (!//-!A2 c2 !//-!A2 c2) |: (!//-!A2 F2 !//-!A2 F2) | %3
 (!//-!A2 F2 !//-!A2 F2) | (!//-!A2 F2 !//-!A2 F2) | (A/F/A/F/ A/F/A/F/ !//-!A2 F2) | %6
!pp! (!//-!A2 F2 !//-!A2 F2) | (!//-!A2 F2 !//-!A2 F2) |!<(! (!//-!A2 F2 !//-!A2 F2)!<)! | %9
"_cresc." (!//-!A2 F2 !//-!A2 F2) | F z!f!!<(! (uF/G/A/B/)!<)! c2 (EB | %11
 A) z!<(! (uF/G/A/B/)!<)! c2 (EB | A) z (ud/!<(!e/f/g/)!<)! (a2 ^c2) | %13
 d z (ud/!<(!e/f/g/)!<)! (a2 ^c2) |!ff! !>!d.D !>!d.D !>!d.D !>!d.D | %15
!>(! (D/F/A/).d/ (D/F/A/).d/ (D/F/A/).d/!>)!!p! (D/F/A/).d/ |!p! (.D.D.D.D) (.D.D.D.D) | %17
 (.D.D.D.D) (.D.D.D.D) |!pp! (d2- d/f/a/d'/) (a2- a/g/f/d/) |!<(! (d2 A2) (F2 dA)!<)! | %20
"_cresc." A2 (a!<(!f) (a3 f)!<)! |!f! (afAf) (geGe) |!>(! (_ec_Ec) (=ec=Ec)!>)! | %23
 ._A(c/A/) .A"_dimin."(c/A/) .A(c/A/) .A(c/A/) | .c!>(!(=A/c/) .c(A/c/) .c(A/c/)!>)! .c!pp!(A/c/) | %25
 (=E^G=A=B) (c2- c/=B/d/c/) | (c2- c/=B/d/c/) (c2- c/B/d/c/) | (c!<(!e)(Ped) (Pc=B)!<)!(PAF) | %28
!>(! E8!>)! | .e/!>(!.e/ z/ .d/ .c/.c/!>)! z/ .=B/!<(! (AG E2)!<)! | %30
!<(! (AG E2)!<)!!<(! (AG E2)!<)! |!<(! G/G/ z/ _A/ G/G/ z/ A/ G/G/ z/ A/ G/G/!<)! z/ F/ | %32
 =E/E/ z/"_cresc." F/ E/E/ z/ F/ E/E/ z/ F/ E/E/ z/ D/ |!f! (E3 c) =B/B/ z/ A/ ^G/G/ z/ E/ | %34
!f! (E3 c) =B/B/ z/ A/ ^G/G/ z/ E/ |!ff! (^c2 d2) (c2 d2) |!<(! (^c2 d=c) (=BAGF)!<)! | %37
 E E2!>(! E2 E2 E-!>)! |!p! E E2!>(! E2 E2 E!>)! |!pp! (E2 F2 E2 F2) | %40
!<(! (E2 F3!>(! G/!<)!F/ED)!>)! |!p!"^dim." (C2!>(! D2 C2 =B,2 | C2 D2!>)! A,2 =B,2) | %43
!ppp! (^C4- [CE]4) | [=B,^F]8- |!<(! [B,F]4 [EA]4!<)! |!>(! ([^Fd]4!>)! [E^c]4) |!pp! E8 | ^F8 | %49
!<(! =F4 [EA]4!<)! |!f! [^Fd]4!>(! =B^G^E^c!>)! | (=E2 ^F2) (=G2 FD) | %52
"_dim." (^c2!>(! d2 e2) (d/=B/)!>)!B |!pp! A6 =B2 | %54
 (d2!<(! e2 =f2) !wedge!e/!wedge!=c/!<)!!wedge!c |!<(! (dede)!<)!!f! (Ee^cA) | (^F=BFB) (=G^cGE) | %57
 (D^F"_dim."^A=G =B^F=AD) |!>(! (=B,4!p! ^G,4)!>)! |!p! (A, ^C2 E) (^F>A F2) | %60
"^dim."!>(! (E>^CA,>C E4)!>)! |!pp! A6 (=GE | A6) (GE) :|!pp! (A/c/A/c/ A/c/_E/c/ !//-!A2 c2) | %64
 (A/c/A/c/ A/c/_E/c/ !//-!A2 c2) | (A/c/_E/c/ A/c/E/c/ !//-!A2 c2) | %66
 (!//-!_A2"_cresc." E2 !//-!A2 E2) |!<(! (^C =E2 .^G) (=A>^c A2)!<)! | %68
!mf! (^c3!<(! ^d/c/) (^G ^g2) .G!<)! |!f! [^c^g] z [c^f] z [ce] z [^G^d] z | %70
 (^c3!<(! ^d/c/) (^G ^g2) G!<)! |!ff! !>![^G,E]8 | [^G,E]/[G,E]/ [G,E]3-!>(! [G,E]4!>)! | %73
!mf! ^G G2 G2!>(! G2 G-!>)! |!p! G ^G2!>(! G2 G2 ^E-!>)! | E ^E2!<(! ^E2 ^E2 ^E-!<)! | %76
 E!f! ^E2!>(! E2 E2 E!>)! | ^F z z2 z4 | z8 |!pp! D/D/D/D/ DD/D/ D/D/D/D/ DD/D/ | %80
 D/D/D/D/ DD/D/ D/D/D/D/ DD/D/ | D/D/D/D/ DD/D/ A,/A,/A,/A,/ A,A,/A,/ | %82
 A,/A,/A,/A,/ A,A,/A,/ D/D/D/D/ DD/D/ |!pp! (A,/D/^F/A/) (A>F D3) z | (A,/D/^F/A/) (A>F D3) z | %85
 (A,/D/^F/A/) (A>F D3) z | (A,/D/^F/A/) (A>F D3) z | %87
 (^D/^F/=B/"^cresc."^d/) (.d>.F) (E/G/B/e/) (.e>.G) | %88
 (^D/^F/=B/^d/)!<(! (.d>.F) (E/G/B/e/) (.e>.G)!<)! |!ff! !>![Cc]8 | !>![ce]8 | %91
!f!!<(! (C/E/G/c/)!<)! !>!c>.G (C/E/G/c/) !>!c>.G | !trill(!Tc8 | %93
 [Gce] z !>!c/c/c/E/ !>!G/G/G/C/ !>!E/E/E/G,/ | C z z2 z4 |"^sul G" F2 _A2 F2 _E2 | %96
 !>!C2 .F._E"^dim."!>(! C2 _AG!>)! | %97
!pp! !>!F/F/(_A/B/) !>!c/c/(_d/c/) !>!_A/A/(B/A/) !>!G/G/(F/G/) | %98
 _A/A/(G/A/) G/G/(F/G/) A/A/(G/A/) F/F/(_E/F/) | (F/G/_A/).A/ !//!A2"_cresc." (A/B/c/).c/ !//!c2 | %100
!<(! (f/g/_a/).a/ !//!a2 (a/b/c'/)c'/ !//!c'2!<)! |!ff! (_a/b/c'/).c'/ c' z (f/g/a/).a/ a z | %102
 (_A/B/c/).c/ c z (f/g/_a/).a/ a z | f z (f/g/_a/).a/ a z (c/=e/f/).f/ | %104
 f z (F/G/_A/).A/ A z (c/e/f/).f/ |!<(! (3(_A,B,C) (3:2:1!/!C3!<)!!<(! (3(A,B,C) (3:2:1!/!C3!<)! | %106
!<(! (3(_A,B,C) (3:2:1!/!C3!<)!!<(! (3(A,B,C) (3:2:1!/!C3!<)! | %107
 D2"_dim." (3:2:1!/!D3 D2 (3:2:1!/!D3 |!p!!>(! F8!>)! |!pp! F8 | =B,8 | %111
!ppp! (!//-!A2 F2 !//-!A2 F2) | (!//-!A2 F2 !//-!A2 F2) | (!//-!A2 F2 !//-!A2 F2) | %114
!p! (!//-!A2 F2) A/c/A C/A,/F/A/ | !//![FA]4 !//![FA]4 | !//![FA]4 !//![FA]4 | %117
 !//![FA]4 !//![FA]4 | (!//-!A2 c2) (!//-!F2 A2) | (!//-!F2 A2) (B/F/B/F/ A/F/A/F/) | %120
 A z z2"_staccato" (.A/.c/.f/.a/ a>.f | .c) z z2 (.F/.A/.c/.f/ !>!f>.c | %122
!pp! ._A) [FA]2 [FA]2 [FA]2 [FA] | _D [D_E]2 [DE]2 [DE]2 [DE] | %124
 ([_A,_A] !tenuto![A,A]2"_cresc." !tenuto![A,A]2 !tenuto![A,A]2 [A,A]) | %125
!mf! ([_A,_G] !tenuto![A,G]2 !tenuto![A,G]2 !tenuto![A,G]2 [A,G]) | %126
 (^G,/^C/=E/^G/ G>.E)"_dim." (G,/C/E/G/ G>.E) | (=A,/!>(!=E/=G/A/ A>.G) (A,/E/G/!>)!A/ A>.G) | %128
!pp! (G2- G/_B/=d/g/) (d2- d/c/B/G/) | G3 z z4 | (B2- B/_d/f/b/) (f2- f/_e/d/B/) | B2 z2 z4 | %132
 z!<(! (_AF_d) z (AFd)!<)! |!<(! (f3 _e/_d/)!<)!!f! (c2 B2) | (_A3!>(! _c) (A2 _E2)!>)! | %135
!p! F z ._A/.A/(F/A/)!>(! A z .A/.A/(F/A/)!>)! |!pp! _A z .A/.A/(F/A/) A z .A/.A/(F/A/) | %137
 (_a!>(!gfc)!>)!!p! _A2 ((A/F/)(F/_E/)) | (_AG (A/F/)(F/_E/)) (AG (A/F/)(F/E/)) | %139
 (_Ac)(PcB)!<(! (PA_G)(PF_D)!<)! | (_AcBA/G/) (Ac BA/G/) | %141
 c/c/ z/ B/ (_A/F/) z/ .F/!<(! (F_E C2)!<)! |!<(! (F_E C2)!<)!!<(! (FE C2)!<)! | %143
!p! c/c/ z/!<(! _d/ c/c/ z/ d/ c/c/ z/ d/ c/c/ z/ B/!<)! | %144
 _A/!<(!A/ z/ B/ A/A/ z/ B/ A/A/ z/ B/ A/A/!<)! z/ G/ |!f! (_A3 c) B/B/ z/ A/ G/G/ z/ B/ | %146
!<(! (_A3!<)! c) B/B/ z/ A/ G/G/ z/ B/ |!f! (=AabB) (=AabB) | (=Aa)!<(! (b_a) (gf_e_d)!<)! | %149
 (_A2 B2 A4) | (_A2!>(! B2 A4)!>)! |!p! (c2 _d2 c2 d2) |!<(! (c2 _d2)!<)!"_dim." (_e!>(!dcB)!>)! | %153
!>(! (_A2 B2 A2 G2)!>)! |!>(! (F2 =D4 =E2)!>)! |!pp! (C8 | D8) |!<(! D4 [CF]4!<)! | %158
!mf! [DB]4!>(! [CA]4!>)! | z!p! C/C/ z C/C/ z C/C/ z A,/A,/ | %160
 z F/F/ z [CF]/[CF]/ z [B,F]/[B,F]/ z [B,F]/[B,F]/ | %161
 z F/F/ z!<(! F/F/ z [FA]/[FA]/ z [FA]/[FA]/!<)! | %162
 z [Fd]/"_cresc."[Fd]/ z [Fd]/[Fd]/ z [Fc]/[Fc]/ z [Fc]/[Fc]/ | %163
 z!f! [Fd]/[Fd]/ z [Fd]/[Fd]/ z [Fc]/[Fc]/ z [Fc]/[Fc]/ | %164
 z [Fd]/[Fd]/ z [Fd]/[Fd]/ z [Fc]/[Fc]/ z [Fc]/[Fc]/ | %165
 z [Fd]/[Fd]/ z [Fd]/[Fd]/ z [Fc]/[Fc]/ z [Fc]/[Fc]/ |!ff! [FA]6"_dim."!>(! (3GBE!>)! | %167
!>(! [FA]8-!>)! |!p! [FA]3 z z4 | (A c2 A!p! F3) z |!>(! (E2 F)!>)! z!pp! F4 | E8 | %172
 .F/(F/A,/F/) .F/(F/A,/F/)"_cresc." .F/(F/A,/F/) .F/(F/A,/F/) | %173
 .A/(A/F/A/)!<(! .A/(A/F/A/) .A/(A/F/A/) .A/(A/!<)!F/A/) |!ff! (c/!<(!f/a/c'/) (c'>!<)!a f) z z2 | %175
!<(! (C/F/A/c/)!<)! (c>A F) z z2 |!<(! (C/F/A/c/)!<)! (!>!c>A F) z!ff!!ff! [FA] z | !>![FA]6 z2 |] %178
[M:6/8]!p! (D/F.F).F/ (D/F.F).F/ |!p! (D/F.F).F/ (D/F.F).F/ | (D/F.F).F/ (D/F.F).F/ | %181
 (D/F.F).F/ (D/F.F).F/ | (D/F.F).F/ (D/F.F).F/ | (D/F.F).F/!<(! (D/F.F).F/!<)! | %184
 (D/F.F).F/!>(! (D/F.F).F/!>)! | (D/F.F)!<(!.F/ (D/F.F).F/!<)! |!mf! (C/E.E).E/ (C/E.E).E/ | %187
 (C/"_dim."E!>(!.E).E/ (C/E.E).E/!>)! |!pp! ((F/A/)(A/d/)(d/A/)) ((F/A/)(A/d/)(d/A/)) | %189
 ((F/A/)(A/d/)(d/A/)) ((F/A/)(A/d/)(d/A/)) | ((F/A/)(A/d/)(d/A/)) ((F/A/)(A/d/)(d/A/)) | %191
 ((F/A/)(A/d/)(d/A/))"^cresc." ((F/A/)(A/d/)(d/A/)) | %192
 ((F/A/)(A/d/)(d/!>(!A/)) ((F/A/)(A/d/)(d/A/))!>)! | %193
 ((F/!<(!A/)(A/d/)(d/A/) (F/A/)(A/d/)(d/A/))!<)! | %194
!mf! ((E/G/)(G/c/)(c/G/) (E/G/)"_cresc."(G/c/)(c/G/)) |!>(! E/G/G/c/c/G/!>)!!p! E/G/G/c/c/G/ | %196
 G3 z2 z |!p!!<(! (B,EF/E/)!<)!!f! (G!>(!e>G)!>)! |!p! G z z z2 z | %199
!<(! (B,EF/E/)!<)!!f! (G!<(!ef)!<)! |!f! !>![cf]>(ag/f/)!>(! ([Dd]2 [DB])!>)! | %201
!p! [FA]3-!<(! [FA][FA][FA]!<)! | [FA]2"^cresc." [Af]-!<(! [Af]!>![Af]!>![Af]!<)! | %203
!mf!!<(! [ce]3 (([db]2!<)!!f! [Bg])) | ([Bg]/[Af]/) [Af]2"_dim."!>(! [G_e]3!>)! | %205
!>(! [Fd]3!>)!!p! (([Fd]2 G)) | (([FA]2 [Af]))"^dim."!>(! [Ae]3!>)! |!pp! [Fc]3- [Fc]2 z | %208
!p! ((E/G,/)(G,/B,/)(A,/G,/)) ((E/G,/)(G,/B,/)(A,/G,/)) | %209
 ((E/G,/)(G,/B,/)(A,/G,/)) ((E/G,/)(G,/B,/)(A,/G,/)) | %210
 ((E/G,/)(G,/B,/)(A,/G,/))"_cresc." ((E/G,/)(G,/B,/)(A,/G,/)) | %211
 ((E/G/)(G/B/)!<(!(A/"_cresc."G/)) ((E/B/)(B/=B/)(B/F/))!<)! | %212
!f! (F/A/)(F/C/F/c/) (c/^c/d/=f/^F/G/) | ([=FA]/f/)!>(!(f/A/)(A/f/) (f/A/)(A/!>)!f/)(g/d/) | %214
!<(! (F/f/)(f/F/)(F/f/) (f/A/)(A/a/)(c/A/)!<)! |!f! (E/e/)(e/E/)(E/e/)!<(! (E/G/)(G/E/)(E/G/)!<)! | %216
 ((C/F/)(F/C/)A) ((B,/_E/)"_dim."(E/B,/)B) | ((A,/!>(!D/)(D/A,/)A) ((D/!>)!!p!F/)(F/D/)F) | %218
!>(! (C/F/)(F/C/)(C/F/)!>)! (C/c/)!pp!(c/C/)(C/c/) | (F/c/)(c/A/)(A/F/) F z z | z6 | %221
 z/!<(! (^F/ _e>d)!<)!!mf! (d/!>(!c/ e2)!>)! | z6 | z/!f! (^F/!<(! _e>d) (d/c/ e2)!<)! | %224
 (db>!<(!.b) (ba)(g/_e/)!<)! |!f!!>(! [G_e]3-!>)! [Ge] z"_dim." e |!pp! b3-!>(! b(ag/_e/)!>)! | %227
!pp! _e3- e z e | (g>_eB)"_cresc." (G!<(!F=E) | (D/F.F!<)!.F/) (D/F.F.F/) | %230
 (D/"_cresc."d)dd/ (D/d)dd/ | (A,/A)!<(!AA/ (A,/A)AA/!<)! |!ff! ((E/e/) e2-) e3 | %233
!f! (ec')!tenuto!=b (a"_dim."g)!tenuto!a |"_dim." ([ce-]6 | (e)ag) (e"^dim."de) | e3-!p! e(de) | %237
"_dim." (e3!pp! _e)(de) | _e3- e(de) | c3- c z2 | z/!mf! (^F/!<(! _e>d)!<)!!>(! (d/c/ e2)!>)! | %241
 z6 | z/!f!!<(! (^F/ _e>d) (d/c/ e2)!<)! |!ff! (db>).b (bg)(f/d/) |!>(! [G_e]3- [Ge]!>)! z!p! e | %245
!pp! b3-!>(! b(gf/d/)!>)! |!pp! _e3- e z!<(! e!<)! |"_cresc." (g>_eB)!<(! (GF=E)!<)! | %248
 (D/F)"_cresc."FF/ (D/F)FF/ | (D/d)!<(!!tenuto!d.d/ (D/d)!tenuto!d.d/!<)! | %250
 (D/d)!tenuto!d"_cresc.".d/ (D/d)!tenuto!d.d/ |!f! (A/a/) a2- a3 |!<(! (Af).e (d>c)d!<)! | %253
 [FA]3"_dim." (ABA) | (Adc)!mp! (A^GA) | A3"_dim."!>(! (A=GA)!>)! | A3!>(! (AGA)!>)! | %257
!pp! A3 (_AGA) | =A3 (A!tenuto!G!tenuto!A) | [A,F][A,F] z"^pizz." [A,F][A,F] z | %260
"^arco" [A,F][A,F] z"^pizz." [A,F][A,F] z |"^arco" [A,F][A,F] z"^pizz." [A,F][A,F] z | %262
"^arco" [A,F][A,F] z"^pizz." [A,F][A,F] z |"^arco" [A,D][A,D] z"^pizz." [A,D][A,D] z | %264
"^arco" [A,D][A,D] z"^pizz." [A,D][A,D] z |"^arco"!>(! (!>!G,3 ^G,3)!>)! |!p!!>(! A,3 =G,3!>)! | %267
!pp!"^pizz." A,A, z B,B, z | A,A, z B,B, z | A,A, z"_cresc." A,A, z | A,A, z"_dim." A,A, z | %271
 A,A, z A,A, z | A,2 z A,2 z | A,2 z A,2 z |"^arco" !fermata!A,6 |][M:3/4]!f! c z !>!f3 d | %276
 cd f2 z2 | c z !>!f3 d | cd A2 z2 |!p! (F2 !>!G2 DE) | (F2 !>!G2 DE) | (F2 !>!G2 DE) | %282
 (F2 GE F) z |!f! c z !>!f3 d | cd f2 z2 | c z !>!f3 d | cd A2 z2 |!pp! (f2 !>!g2 de) | %288
 (f2 !>!g2 de) | (f2 !>!g2 de) | f2 z2 z2 | z6 |!ff! c'd' a2 z2 | z6 |!>(! cd A2!>)! z2 | %295
 z2!p! cd f2 | z2 cd f2 | z2 cd f2 | z2 cd f2 | z2 cd f2 | z2 cd f2 | z2 (cd B2 | A2) z2 z2 | %303
!p! CD F2 z2 | z6 | z2!mf! [DA][DA] [DA] z | z6 |!ff! !>!cd A2 z2 | !>!cd A2 z2 | !>!cd A2 z2 | %310
 !>!cd A2 z2 |!ff! cd A2 z2 | cd A2 z2 | cd A2 (GF) | F2 z2 z2 |!mf!!>(! [FA]6!>)! | %316
!>(! [FA]6!>)! |!>(! [FA]6!>)! |!>(! [FA]6!>)! |!p!!>(! (F2 !>!G2 DE)!>)! | (F2 !>!G2 DE) | %321
!>(! (F2 !>!G2 DE)!>)! |!pp! (F4"_Fine." !fermata!A,2) ||[K:Ab]!pp!"_dolce" (c6 | f4 d2) | (c4 d2 | %326
 f4) z2 | (c6 | f4 d2) | (c4 d2 | c4) z2 |!mf! !>!Az/G/Gz/F/ F2 | !>!Az/G/Gz/F/ F2 | %333
 !>!Az/G/Gz/F/ F2 | !>!Az/G/Gz/F/ F2 | !>!Az/G/Gz/F/ F2 |!f! !>!Az/G/Gz/F/ F2 | !>!Az/G/Gz/F/ F2 | %338
 E6 |"_dim." F6 |"_dim." _F6- |!>(! F6 | E6!>)! |!p! C6- |"_dim." C6 |!pp! C6 | A,4 z2 | z6 | z6 | %349
 z6 | z6 | z6 | z6 | z6 | z6 |!ff! Az/G/Gz/F/ F2 | Az/G/Gz/F/ F2 | Az/G/Gz/F/ F2 | Az/G/Gz/F/ F2 | %359
 Az/G/Gz/F/ F2 | Az/G/Gz/F/ F2 | Az/G/Gz/F/ F2 | Ez/D/Dz/C/ C2 |"_dim." Fz/!>(!E/Ez/D/ D2!>)! | %364
 _Fz/"_dim."E/Ez/D/ D2 |!>(! _Fz/E/Ez/D/ D2 | Ez/D/Dz/C/ C2!>)! |!p! Az/G/G!>(!z/F/ F2 | %368
 dz/c/ cz/=B/ Bz/_B/!>)! |!pp! Bz/=A/ Az/_A/ Az/G/ | Gz/_G/ Gz/=E/ F z ||[K:F] z6 | z6 | z6 | z6 | %375
 z2 z2!p! (B,2 | A,2) z2 (B,2 | A,2) z2 (B,2 | A,2) z2 z2 | z2!<(! (A2 B2-!<)! | %380
!>(! B2 A2)!>)! z2 | z2!<(! (A2 B2-!<)! |!>(! B2 A2)!>)! z2 |!pp! (f2 !>!g2 de) | (f2 !>!g2 de) | %385
 (f2 !>!g2 de) | f4 z2 | z2!p! dd d2 | z2!mf! FF F2 | z2!f! d'd' d'2 | z2!ff! ff f2 | z2!f! cd f2 | %392
 z2 cd f2 | z2 cd f2 | z2 cd f2 | z2 cd f2 | z2 cd f2 | z2 (cd B2 | A2) z2 z2 |!f! cd f2 z2 | %400
!mf! cd f2 z2 | C"_dim."D F2 z2 |!p! CD A,2 z2 |!p! cd A2 z2 | cd A2 z2 | cd A2 z2 | cd A2 z2 | %407
 cd A2 z2 | cd A2 z2 | cd A2 (GF) | F2 z2 z2 |!ff! (c2 f3 .d) | (cd !>!f4) | (c2 !>!f3 .d) | %414
 (cd [FA]4) |!p! (f2 g2 de) | (f2 g2"_dim." de) | (f2 g2 de) |!>(! (f2 g2 de)!>)! |!pp! (f6- | %420
 (f6 | (c'6) | !fermata!a'6)) ||[K:Ab]!pp! (c'6 | f'4 d'2) | (c'4 d'2 | f'4) z2 | (c'6 | f'4 d'2) | %429
 (c'4 d'2 | c'4) z2 |!f!!<(! (C2 !>!B2 A2)!<)! |!<(! (C2 !>!B2 A2)!<)! |!<(! (C2 !>!B2 A2)!<)! | %434
!<(! (c2 !>!b2 a2)!<)! |!<(! (c2 !>!b2 a2)!<)! |!<(! (c2 !>!b2 a2)!<)! |!<(! (c2 !>!b2 a2)!<)! | %438
!<(! (E2 !>!d2 c2)!<)! | (c2 !>!g2 f2) | (d2 !>!a2 _f2) | (d2 e2"_dim." _f2) | (e2 b2 a2) | %443
 (=f2 =de ^e2 |!>(! g2 =e2 f2)!>)! |!p! (_d2 c3 B |!>(! A4)!>)! z2 | %447
!ppp! (3:2:1!/!C3 (3:2:1!/!F3 (3:2:1!/!G3 | (3:2:1!/!A3 (3:2:1!/!G3 (3:2:1!/!F3 | %449
 (3:2:1!/!A3 (3:2:1!/!c3 (3:2:1!/!B3 | (3:2:1!/!A3 (3:2:1!/!G3 (3:2:1!/!F3 | %451
 (3:2:1!/!E3 (3:2:1!/!F3 (3:2:1!/!G3 | (3:2:1!/!A3 (3:2:1!/!B3 (3:2:1!/!=B3 | %453
 (3:2:1!/!c3 (3:2:1!/!A3 (3:2:1!/!F3 | (3:2:1!/!C3 (3:2:1!/!=B,3 (3:2:1!/!C3 |!ff! CC FF GG | %456
 AA GG FF | AA cc BB | AA GG FF | =EE FF GG | AA BB =BB | cc AA FF | CC =B,B, CC | %463
 CC"_molto" =B,B, CC | D"_dim."D CC A!>(!A | FF _FF!>)! EE |!p! DD CC =B,B, |!>(! CC AA GG!>)! | %468
!pp! FF dd =EE | FF ff FF | ff F2 z2 ||[K:F][M:2/4]!p! !>!A,>A,A,A,- | A,.A,.A,.A, | A,>A,A,A,- | %474
 A,.A,.A,.A, | A,>A,A,A,- | A,.A, .A,.A, | A,>A,A,A,- | A,.A,.A,.A, | A,>A,A,A,- | A,.A,.A,.A, | %481
 A,>A,A,A,- | A,.A,.A,.A, | A,>A,A,A,- | A,.A,"_cresc.".A,.A, | A,>A,!<(!A,A,- | A,.A,.A,.A, | %487
 A,>A,A,A,!<)! |!mf! F>F!<(! FF- | F>F FF-!<)! | F>F FF | FA GE | FA GE | FA GE | FA GE | %495
 !>!c.A"_dim." .F.C | !>!c.A .F.C |!mf! !>!c.A .F.C |!mp! .c.A .F.C |!p! .c.A .F.C | .c.A .F.C | %501
 !>!c.A .F.C | !>!c.A .F.C | .F.C!pp! !>!cA | FC !>!cA | FC !>!cA | FC !>!cA | FC !>!cA | %508
 FC !>!cA | FC !>!cA | FC !>!cA | FC !>!cA | FC !>!cA | FC !>!cA |{/E} =B2!<(! d2 | c3 A | %516
 =B2!<)! d^G |!ff! [A,EA] z [A,EA] z | [A,EA] z [A,EA] z |"_dim." A z!p! A z |!>(! A z .A.c!>)! | %521
!pp! cA FC | FC !>!cA | FC !>!cA | !>!cA FC | BF !>!dB | !>!dB FD | FC !>!cA | FC !>!cA | %529
 FC !>!cA |!<(! FC !>!cA!<)! |!<(! FC !>!cA!<)! |!mf!{/D} !>!d2 !>!f2 | e2"_cresc." c2 | %534
 (df).d.=B |!ff! c z C z | C z C z | C z z2 | z4 |!pp! [C_E]>[CE][CE][CE]- | [CE].[C_E].[CE] z | %541
 [C_E]>[CE][CE][CE]- | [CE].[C_E].[CE] z | [C_E]>[CE][CE][CE]- | [CE].[C_E].[CE] z | %545
 [C_E]>[CE][CE][CE]- | [CE].[C_E].[CE] z | [C_E]>[CE][CE][CE]- | [CE].[C_E].[CE] z | %549
 [C_E]>[CE][CE][CE]- | [CE].[C_E].[CE] z | [C_E]>[CE][CE][CE]- | [CE].[C_E].[CE] z | %553
 [G,_E]>[G,E][G,E][G,E]- | [G,E].[G,_E].[G,E] z | [G,_E]>[G,E][G,E][G,E]- | [G,E].[G,_E].[G,E] z | %557
 [C_E]>[CE][CE][CE]- | [CE].[C_E].[CE] z | [C_E]>[CE][CE][CE]- | [CE].[C_E].[CE] z | %561
 [C_E]>[CE][CE][CE]- |!<(! [CE].[C_E].[CE] z | _D>DDD- | D!<)!!mf!._D.D z | C>[C_E][CE][CE]- | %566
 [CE].[C_E]"_dim.".[CE] z |!>(! [C_E]>[CE][CE]([CE-] | [DE]).[D_E].[DE].[DE]!>)! |!pp! !//!C4 | %570
 !//!C4 | !//!C4 | !//!C4 | (!//-!=B,2 D2 | !//-!=B,2 D2 | !//-!=B,2 D2 | !//-!=B,2 D2) | _B,4- | %578
 B,4- | B,4- | B,4 | !/!_A,!/!C !/!A,!/!C |"_cresc." !/!_A,!/!C !/!A,!/!C | %583
!<(! !/!F!/!_A !/!F!/!A | !/!F!/!_A !/!F!/!A!<)! |!f! [cc'] z [Fc=b] z | [cc'] z [Fc=b] z | %587
 [cc'] z [Fc=b] z | [cc'] z [Fc=b] z | [cc'] z z2 | z4 | z4 | z4 |!pp! !/!F!/!C !/!c!/!A | %594
 !/!F!/!C !/!c!/!A | !/!F!/!C !/!c!/!A | !/!c!/!A !/!F!/!C | !/!B!/!F !/!d!/!B | %598
 !/!d!/!B !/!F!/!D | !/!F!/!C !/!c!/!A | !/!F!/!C !/!c"_cresc."!/!A | !/!F!<(!!/!C !/!c!/!A | %602
 !/!F!/!C !/!c!<)!!/!A | !/!c!/!A !/!F!mf!!/!A | (!>!A>B) (.A.E) |!<(! (!>!A>B) (.A.F) | %606
 (!>!c>=d) (.c.G) | c>_d (.c!<)!._A) |!f! (_e>f) (.e.c) | (_e>f) (.e.c) | _e=B e"_cresc."c | %611
 _e=B ec | =ec =ec | =ec =ec |!<(! Te4 | Te4!<)! | [Af] z!ff! !>!fd | !>!cA !>!FD | !>!D>D DD | %619
 D z !>!f._d | !>!c._A !>!F._D | !>!_D>D DD | _D z z"_dim."!p! D |!p! _D>D DD | _D z z2 | z4 | z4 | %627
!pp! (B,4 | _D4) | (F4 | C4-) | C2 (B,2 | _A,4) | _D4- | D4 | C4- | C4- | C4- | C4 | (F4- | %640
 F2 =E2 | F) z z2 | z2 z!mf! B, | A, z z2 | z2 z"_dim." B, | C z z D | C z z D | C z z2 | z4 || %649
!pp! (C4 |!<(! D4!<)! |!>(! E4!>)! | F4) |!<(! (E4!<)! | F4) | (E4- |!>(! E2 D2)!>)! | %657
!pp! (C2 E2) | (D/E/F/G/ A2 |!<(! A4)!<)! | F4 |!<(! (E2 c2-!<)! |!>(! c2 =B2)!>)! |!p! (E2 C2 | %664
!>(! D2 F2)!>)! |"^sul G"!pp! (E2 ^D2 |!<(! F2 E2)!<)! | (A2 G3/2"_dim."!>(!A/4G/4!>)! | %668
!>(! (3.E.E.E!>)!!p! E2-) | E z z2 | z4 | z4 | z4 | z4 | z4 | z4 | z4 | z2"^pizz."!pp! A2 | %678
!<(! z2 A2!<)! | A,2"_cresc." A2 | z2 A2 | z2 A2 | z2 =B2 | z2 E2 |!>(! A z A!>)! z |!pp! AA, AA, | %686
 AA, AA, | AA, AA, | AA, AA, |"_arco" =B,>C B,/B,/B,/B,/ | !//!=B,4 | =B,>C B,/B,/B,/B,/ | %692
 !//!=B,4 | C>D C/C/C/C/ | !//!C4 | C>D C/C/C/C/ | !//!C4 | =B,>C !//!B,2 |"_cresc." =BE B>c | %699
 =BE B>c |!p! =B>"_cresc."c B>!<(!c | =B>c B>c | _B>c B>c | _B>c B[GB]!<)! | [FA]C !>!c.A | %705
 .F.C !>!c.A | .F.C !>!c.A | !>!c.A .F.C | .B.F .d.B | !>!d.B .F.D | .F.C !>!c.A | .F.C !>!c.A | %712
 .F.C !>!c.A | .F.C !>!c.A | !>!c.A .F.C |!mf!{/E} !>!=B2 !>!d2 | (c3"_cresc." A) | %717
!<(! (=B2 d)!<)!.^G |!f! [A,EA] z [A,EA] z | [A,EA] z [A,EA] z |!mp! _E4- |!>(! E4!>)! | %722
!ppp! .F._A .F.A | .F._A .F.A | .F._A .F.A | .F._A .F.A | ._D._A .D.A |!pp! ._D._A .D.A | %728
 .F._A .F.A | .F._A .F.A | .F._A .F.A | .F._A .F.A | .F._A .F.A | %733
!ppp! (3:2:1!/![B,_G]3 (3:2:1!/![B,_E]3 | (3:2:1!/![B,_E]3 (3:2:1!/![B,_G]3 | (6:4:1!/![B,_G]6 | %736
 (6:4:1!/![B,_G]6 | (6:4:1!/![B,_G]6 | (6:4:1!/![B,_G]6 | (6:4:1!/![B,_G]6 | %740
 (3:2:1!/![=A,=G]3"_cresc." [A,G] z |!<(! (3:2:1!/![A,G]3 [A,G] z | (3:2:1!/![A,A]3 [A,A]!<)! z | %743
 (3:2:1!/![_B,G]3"_cresc." [B,G] z |!<(! (3:2:1!/![=B,G]3 [B,G] z | (3:2:1!/![=B,^G]3 [B,G]!<)! z | %746
!f! (3AAA (_BA) |!>(! (3F"^dim."FF (GF) | (3CCC (DC)!>)! | (3:2:1!/!B,3 (CB,) |!p! A,4- | A,4- | %752
 A,4 | (C2 A,2- |!<(! A,4) | (A,2 D)z/.C/!<)! |!>(! C4-!>)! | C4- |!pp! C4 | C4- | C4- | C4 | %762
!<(! (C4 | E2 C2)!<)! | [_B,D]4- |!>(! [B,D]4!>)! |!p! (D2!>(! C2- | C4)!>)! | %768
!pp! .[FA]>.[FA].[FA][FA]- | .[FA].[FA].[FA] z | .[FA]>.[FA].[FA][FA]- | .[FA].[FA].[FA] z | %772
 .[FA]>.[FA]!<(!.[FA][FA]- | .[FA].[FA].[FA] z | .G>.G!<)!.G!mf!G- | .G.G.G z | %776
"_dim." .[FA]>.[FA].[FA]!>(![FA]- | .[FA].[FA].[FA]!>)! z |!p! (FA, F2-) |"_dim." (F2 E2 | %780
 F) z (3(AFA | F) z (3(AFA | F) z (3(AFA | F) z (3(AFA | F) z (3(_A"_più cresc."FA | F) z (3(_AFA | %786
 F)!<(! z (3(_AF!<)!A | F) z (3(_AFA | F) z!f! (3=BBB | (3=BBB!<(! (3BBB | %790
 (3:2:1!/!=B3 (3:2:1!/!B3!<)! |!ff! !/!f!/!g !/!a!/!A | !/!f!/!g !/!a!/!A | !/!f!/!g !/!a!/!A | %794
 !/!f!/!g !/!e!/!B | (3(Aa).a !>!a2 | (3(Aa).a !>!a2 | (3(Aa).a !>!a2 | (3(Aa).a !>!a2 | %799
 (3(Aa).a !>!_a2 | (3(_A_a).a !>!a2 | (3(_A_a).a!<(! !>!a2 | (3(_A_a).a !>!a2!<)! | %803
!f! (3(f=b).b (3(bf).f | (3(f=b).b (3(bf).f |!f! (3(f=b).b (3(^gb).b | (3(^ga).a (3(ga).a | %807
 (3(a_b).b (3(f^f).f | (3(=fe).e (3(ef).f | (3(ef).f (3(_dc).c | (3(ef).f (3(_dc).c | %811
 (3(ef).f (3(_dc).c | (3(_dc).c (3(=B_B).B | [FA] z!ff! !>![Ac]2 | z2 !>![Ac]2 | z2 !>![FA]2 | %816
 z2 !>![Ac]2 | z2 !>![FA]2 | z2 !>![Ac]2 | (3:2:1!/![FA]3 (3:2:1!/![FB]3 | %820
 (3:2:1!/![Fc]3 (3:2:1!/![Ge]3 |!ff! (3[Af][FA][FA] (3:2:1!/![FA]3 | %822
 (3:2:1!/![FA]3 (3:2:1!/![FA]3 | (3:2:1!/![FA]3 (3:2:1!/![FA]3 | (3:2:1!/![FA]3 (3:2:1!/![FA]3 | %825
 (3:2:1!/![FA]3 (3:2:1!/![FA]3 | (3:2:1!/![FA]3 (3:2:1!/![FA]3 | (3:2:1!/![Af]3 (3:2:1!/![Bf]3 | %828
 (3:2:1!/![ca]3 (3:2:1!/![Be]3 | (3:2:1!/![Af]3 (3:2:1!/![Bf]3 | (3:2:1!/![ca]3 (3:2:1!/![Be]3 | %831
 (3:2:1!/![Af]3 (3:2:1!/![Bf]3 | (3:2:1!/![ca]3 (3:2:1!/![Be]3 | (3(fa).a (3(ae).e | %834
 (3(fa).a (3(ae).e | (3(fa).a (3(ae).e | (3(fa).a (3(ae).e |!<(! (3:2:1A3 (3:2:1A3 | %838
 (3(AB).B (3(B=B).B | (3(=Bc).c!<)!!<(! (3(c_d).d | (3(_d=d).d (3(d_e).e | %841
 (3(_ef).f!<)!!fff! (3:2:1!/![_d_a]3 | (3:2:1!/![_d_a]3 (3:2:1!/![da]3 | [=B=b]2 z2 | f2 z2 | %845
 [FAf]2 z2 | [GBe]2 z2 | [Af] z !>!f>d | !>!c>A !>!F>D | F z [FA]>[FA] | !>![FA]4 | [CF]4 | %852
 !fermata![CF]4 |] %853
V:4
 x8 | x8 |: x8 | x8 | x8 | x8 | x8 | x8 | x8 | x8 | x8 | x8 | x8 | x8 | x8 | x8 | x8 | x8 | x8 | %19
 x8 | x8 | x8 | x8 | x8 | x8 | x8 | x8 | x8 | x8 | x8 | x8 | x8 | x8 | x8 | x8 | x8 | x8 | x8 | %38
 x8 | x8 | x8 | x8 | x8 | x8 | x8 | x8 | x8 | x8 | x8 | x8 | x8 | x8 | x8 | x8 | x8 | x8 | x8 | %57
 x8 | x8 | x8 | x8 | x8 | x8 :| x8 | x8 | x8 | x8 | x8 | x8 | x8 | x8 | x8 | x8 | x8 | x8 | x8 | %76
 x8 | x8 | x8 | x8 | x8 | x8 | x8 | x8 | x8 | x8 | x8 | x8 | x8 | x8 | x8 | x8 | x8 | x8 | x8 | %95
 x8 | x8 | x8 | x8 | x8 | x8 | x8 | x8 | x8 | x8 | x8 | x8 | %107
 (3_A,B,C (3:2:1!/!C3 (3A,B,C (3:2:1!/!C3 | x8 | x8 | x8 | x8 | x8 | x8 | x8 | x8 | x8 | x8 | x8 | %119
 x8 | x8 | x8 | x8 | x8 | x8 | x8 | x8 | x8 | x8 | x8 | x8 | x8 | x8 | x8 | x8 | x8 | x8 | x8 | %138
 x8 | x8 | x8 | x8 | x8 | x8 | x8 | x8 | x8 | x8 | x8 | x8 | x8 | x8 | x8 | x8 | x8 | x8 | x8 | %157
 x8 | x8 | x8 | x8 | x8 | x8 | x8 | x8 | x8 | x8 | x8 | x8 | x8 | x8 | x8 | x8 | x8 | x8 | x8 | %176
 x8 | x8 |][M:6/8] x6 | x6 | x6 | x6 | x6 | x6 | x6 | x6 | x6 | x6 | x6 | x6 | x6 | x6 | x6 | x6 | %194
 x6 | x6 | x6 | x6 | x6 | x6 | x6 | x6 | x6 | x6 | x6 | x6 | x6 | x6 | x6 | x6 | x6 | x6 | x6 | %213
 x6 | x6 | x6 | x6 | x6 | x6 | x6 | x6 | x6 | x6 | x6 | x6 | x6 | x6 | x6 | x6 | x6 | x6 | x6 | %232
 x6 | x6 | x6 | x6 | x6 | x6 | x6 | x6 | x6 | x6 | x6 | x6 | x6 | x6 | x6 | x6 | x6 | x6 | x6 | %251
 x6 | x6 | x3 F3 | x6 | x6 | x6 | x6 | x6 | x6 | x6 | x6 | x6 | x6 | x6 | x6 | x6 | x6 | x6 | x6 | %270
 x6 | x6 | x6 | x6 | x6 |][M:3/4] x6 | x6 | x6 | x6 | x6 | x6 | x6 | x6 | x6 | x6 | x6 | x6 | x6 | %288
 x6 | x6 | x6 | x6 | x6 | x6 | x6 | x6 | x6 | x6 | x6 | x6 | x6 | x6 | x6 | x6 | x6 | x6 | x6 | %307
 x6 | x6 | x6 | x6 | x6 | x6 | x6 | x6 | x6 | x6 | x6 | x6 | x6 | x6 | x6 | x6 ||[K:Ab] x6 | x6 | %325
 x6 | x6 | x6 | x6 | x6 | A4 x2 | x6 | x6 | x6 | x6 | x6 | x6 | x6 | x6 | x6 | x6 | x6 | x6 | x6 | %344
 x6 | x6 | x6 | x6 | x6 | x6 | x6 | x6 | x6 | x6 | x6 | x6 | x6 | x6 | x6 | x6 | x6 | x6 | x6 | %363
 x6 | x6 | x6 | x6 | x6 | x6 | x6 | x6 ||[K:F] x6 | x6 | x6 | x6 | x6 | x6 | x6 | x6 | x6 | x6 | %381
 x6 | x6 | x6 | x6 | x6 | x6 | x6 | x6 | x6 | x6 | x6 | x6 | x6 | x6 | x6 | x6 | x6 | x6 | x6 | %400
 x6 | x6 | x6 | x6 | x6 | x6 | x6 | x6 | x6 | x6 | x6 | x6 | x6 | x6 | x6 | x6 | x6 | x6 | x6 | %419
 x6 | x6 | x6 | x6 ||[K:Ab] x6 | x6 | x6 | x6 | x6 | x6 | x6 | x6 | x6 | x6 | x6 | x6 | x6 | x6 | %437
 x6 | x6 | x6 | x6 | x6 | x6 | x6 | x6 | x6 | x6 | x6 | x6 | x6 | x6 | x6 | x6 | x6 | x6 | x6 | %456
 x6 | x6 | x6 | x6 | x6 | x6 | x6 | x6 | x6 | x6 | x6 | x6 | x6 | x6 | x6 ||[K:F][M:2/4] x4 | x4 | %473
 x4 | x4 | x4 | x4 | x4 | x4 | x4 | x4 | x4 | x4 | x4 | x4 | x4 | x4 | x4 | x4 | x4 | x4 | x4 | %492
 x4 | x4 | x4 | x4 | x4 | x4 | x4 | x4 | x4 | x4 | x4 | x4 | x4 | x4 | x4 | x4 | x4 | x4 | x4 | %511
 x4 | x4 | x4 | x4 | x4 | x4 | x4 | x4 | x4 | x4 | x4 | x4 | x4 | x4 | x4 | x4 | x4 | x4 | x4 | %530
 x4 | x4 | x4 | x4 | x4 | x4 | x4 | x4 | x4 | x4 | x4 | x4 | x4 | x4 | x4 | x4 | x4 | x4 | x4 | %549
 x4 | x4 | x4 | x4 | x4 | x4 | x4 | x4 | x4 | x4 | x4 | x4 | x4 | x4 | x4 | x4 | x4 | x4 | x4 | %568
 x4 | x4 | x4 | x4 | x4 | x4 | x4 | x4 | x4 | x4 | x4 | x4 | x4 | x4 | x4 | x4 | x4 | x4 | x4 | %587
 x4 | x4 | x4 | x4 | x4 | x4 | x4 | x4 | x4 | x4 | x4 | x4 | x4 | x4 | x4 | x4 | x4 | x4 | x4 | %606
 x4 | x4 | x4 | x4 | x4 | x4 | x4 | x4 | x4 | x4 | x4 | x4 | x4 | x4 | x4 | x4 | x4 | x4 | x4 | %625
 x4 | x4 | x4 | x4 | x4 | x4 | x4 | x4 | x4 | x4 | x4 | x4 | x4 | x4 | x4 | x4 | x4 | x4 | x4 | %644
 x4 | x4 | x4 | x4 | x4 || x4 | x4 | x4 | x4 | x4 | x4 | x4 | x4 | x4 | x4 | x4 | x4 | x4 | x4 | %663
 x4 | x4 | x4 | x4 | x4 | x4 | x4 | x4 | x4 | x4 | x4 | x4 | x4 | x4 | x4 | x4 | x4 | x4 | x4 | %682
 x4 | x4 | x4 | x4 | x4 | x4 | x4 | x4 | x4 | x4 | x4 | x4 | x4 | x4 | x4 | x4 | x4 | x4 | x4 | %701
 x4 | x4 | x4 | x4 | x4 | x4 | x4 | x4 | x4 | x4 | x4 | x4 | x4 | x4 | x4 | x4 | x4 | x4 | x4 | %720
 x4 | x4 | x4 | x4 | x4 | x4 | x4 | x4 | x4 | x4 | x4 | x4 | x4 | x4 | x4 | x4 | x4 | x4 | x4 | %739
 x4 | x4 | x4 | x4 | x4 | x4 | x4 | x4 | x4 | x4 | x4 | x4 | x4 | x4 | x4 | x4 | x4 | x4 | x4 | %758
 x4 | x4 | x4 | x4 | x4 | x4 | x4 | x4 | x4 | x4 | x4 | x4 | x4 | x4 | x4 | x4 | x4 | x4 | x4 | %777
 x4 | x4 | x4 | x4 | x4 | x4 | x4 | x4 | x4 | x4 | x4 | x4 | x4 | x4 | x4 | x4 | x4 | x4 | x4 | %796
 x4 | x4 | x4 | x4 | x4 | x4 | x4 | x4 | x4 | x4 | x4 | x4 | x4 | x4 | x4 | x4 | x4 | x4 | x4 | %815
 x4 | x4 | x4 | x4 | x4 | x4 | x4 | x4 | x4 | x4 | x4 | x4 | x4 | x4 | x4 | x4 | x4 | x4 | x4 | %834
 x4 | x4 | x4 | x4 | x4 | x4 | x4 | x4 | x4 | x4 | x4 | x4 | x4 | x4 | x4 | x4 | x4 | x4 | x4 |] %853
V:5
 z8 | z8 |:!mf! (F, A,2 C) D>.F D2 | (C>A, F,G,/A,/ C4) | %4
 !>!C,>.D, .F,/.D,/ z !>!C,>.D, .F,/.D,/ z |!<(! (C,/F,/A,/C/!<)!!>(! C>A,)!>)! F,3 z | %6
!pp! (!//-!F,2 A,2 !//-!F,2 A,2) | (!//-!F,2 A,2 !//-!F,2 A,2) | %8
!<(! (!//-!F,2 A,2 !//-!F,2 A,2)!<)! |"_cresc." (!//-!F,2 A,2 !//-!F,2 A,2) | %10
 F, z!f! (!>!F,2 A,2) (B,/A,/G,/C/) | C z (!>!F,2 A,2) (B,/A,/G,/C/ | F,) z (D2 F2) (G/F/E/G/) | %13
 F z (D2 F2) (G/F/E/G/) |!ff! F,>G, F,>G, F,>G, F,>G, |!>(! F,>G, F,>G, F,>G,!>)!!p! F,>G, | %16
!p! D,2 z2 z4 |!p! (D2-!<(! D/F/A/d/)!<)! (A2-!>(! A/G/F/!>)!D/) |!pp! (F4 B,4) | %19
 (.D!<(!.D.D.D) (.D.D.D.D)!<)! |"_cresc." (!//-!F2!<(! A2 !//-!F2 A2)!<)! | %21
!f! (!//-!F2 A2) (!//-!C2 E2) |!>(! (!//-!C2 _E2) (!//-!B,2 =E2)!>)! | F F2"_dimin." F2 F2 F- | %24
 F!>(! F2 F2 F2!>)!!pp! F | =E4- E(.E.E.E) | (.E.E.E.E) (.E.E.E.E) | %27
 .A,!<(!(A,=B,)(B, C)(CD)((D!<)! | C)E D2) (C!>(!E D2)!>)! | (c=BA^G) (ED/F/ E2- | %30
 E)(D/F/ E2- E)(D/F/ E2) |!<(! E/E/ z/ F/ E/E/ z/ F/ E/E/ z/ F/ E/E/!<)! z/ D/ | %32
 C/C/ z/"_cresc." D/ C/C/ z/ D/ C/C/ z/ D/ C/C/ z/ =B,/ |!f! (C3 E) D/D/ z/ C/ =B,/B,/ z/ D/ | %34
!f! (C3 E) D/D/ z/ C/ =B,/B,/ z/ E/ |!ff! A8 | A4 (F2 =B,2) | (C2!>(! D2 C4)!>)! | %38
!p! C2 D2!>(! C4!>)! |!pp! (^C2 D2 C2 D2) |!<(! (^C2 D3!<)!!>(! E/D/=C_B,)!>)! | %41
!p!"_dim." (C2!>(! =B,2 A,2 ^G,2 | A,2 ^F,4!>)! ^G,2) |!ppp! E,4 A,4- | A,8 |!<(! A,4 [E,A,]4!<)! | %46
!>(! [D,=B,]4!>)! [E,^C]4 |!pp! ^C8 | A,8 |!<(! A,4 [E,A,]4!<)! |!f! (D,^F,D=B,)!>(! ^G,4!>)! | %51
 ^A,6 (=B,D) | (E2"_dim."!>(! ^F2 G2) (F/D/)!>)!.D |!pp! (E2 ^F2 G2 FC) | %54
 (=F2!<(! G2 A2) !wedge!G/!wedge!E/!<)!!wedge!E |!<(! (DEDE)!<)!!f! (^CECA,) | %56
 (^F,=B,F,B,) (=G,^CG,E,) | (D,^F,"_dim."^A,=G, =B,^F,=A,D,) |!>(! ([=F,A,]4!p! D,4)!>)! | %59
!p! (!//-!^C,2 E,2 !//-!C,2 E,2) |!>(! (!//-!^C,2 E,2 !//-!C,2 E,2)!>)! | %61
!pp! (!//-!^C,2 E,2 !//-!C,2 E,2) | (!//-!^C,2 E,2 !//-!C,2 E,2) :|!mf! (^F, A,2 B,) (C>._E C2) | %64
 (C>B, A,^G,/A,/) C4 | (C>B, A,^G,/A,/) C4 | C>B,"_cresc." _A,=G,/A,/ C4 | %67
!<(! (!//-!^G,2 =E,2) (!//-!=A,2 ^F,2)!<)! | %68
!mf! (^G,/E,/G,/E,/)!<(! (^F,/A,/F,/A,/) (^C/G,/C/G,/) (^B,/G,/B,/G,/)!<)! | %69
!f! (^G,/E,/G,/E,/) (^F,/A,/F,/A,/) (^C/G,/C/G,/) (^B,/G,/B,/G,/) | %70
 (^G,/E,/G,/E,/) (^F,/A,/F,/A,/) (^C/G,/C/G,/) (^B,/G,/B,/G,/) | ^C2 z2 z4 | z8 | z8 | z8 | %75
 z4!<(! (=B,2 ^B,^C)!<)! |!f! (D4!>(! ^C2 =B,2)!>)! |!ff!"^dim."!>(! !///![D,A,]8!>)! | %78
 [D,A,] z z2 z4 |!mf! !>!^F,>!<(!G, (A,/>F,/) z !>!A,>=B,!<)! (D/>B,/) z | %80
!mf! D>E (!tenuto!G/>^F/) z (!tenuto!E/>C/) z (!tenuto!=B,/>A,/) z |{/A} (G3 ^F) (E2 (3D=B,A,) | %82
!p!!>(! (D3 ^C A,2)!>)! (3(^F,G,^G,) |!pp! A,.[D,A,].[D,A,].[D,A,] .[D,A,].[D,A,].[D,A,].[D,A,] | %84
!<(! (A,2!<)!!>(! ^F4 A,2)!>)! | .[D,A,].[D,A,].[D,A,].[D,A,] .[D,A,].[D,A,].[D,A,].[D,A,] | %86
!<(! (A,2!<)!!>(! ^F4 A,2)!>)! | !>!=B,B,"^cresc."!>!B,B, !>!B,B,!>!B,B, | %88
 !>!=B,!<(!B,!>!B,B, !>!B,B,!>!B,B,!<)! |!ff! !///![C,_B,]4 !///!C4 | !///!C4 !///!C4 | %91
!f! [C,C] z!<(! (C,/E,/G,/C/)!<)! !>!C>.C,!<(! (C,/E,/G,/C/)!<)! | %92
 !>!C>.C, (C,/E,/G,/C/) !>!C>.C, (C,/E,/G,/C/) | [C,C] z z2 z4 | %94
!ff! !>!c>E !>!G>C !>!_D>G, !>!B,>E, | F, z z2 z4 | z8 | z8 | z8 | %99
!mp! !>!F,2"_cresc." !>!_A,2 !>!F,2 !>!_E,2 |!<(! !>!C,2 .F,._E, !>!C,2 .F,.E,!<)! | %101
 F, z !>!_A,/A,/A,/A,/ F, z !>!_E,/E,/E,/E,/ | C, z F,/F,/_E,/E,/ C, z F/F/_E/E/ | !>!=D2 .G.F D4 | %104
 !>!_A,2 .D.C !>!A,4 |!<(! (3(F,G,_A,) (3:2:1!/!A,3!<)!!<(! (3(F,G,A,) (3:2:1!/!A,3!<)! | %106
!<(! (3(F,G,_A,) (3:2:1!/!A,3!<)!!<(! (3(F,G,A,) (3:2:1!/!A,3!<)! | %107
 (3F,G,_A,"_dim." (3F,F,A, (3F,G,A, (3F,F,A, |!p!!>(! C8!>)! |!pp! _C8 | _A,8 | %111
!mp! (F,!<(! =A,2 C) (D>F D2)!<)! |!mf! (C>A, F,G,/A,/) C4 | %113
 !>!C,>!mp!.D, .F,/.D,/ z !>!C,>.D, .F,/.D,/ z |!<(! (C,/F,/A,/C/) (C>A,!<)!!>(! F,3) z!>)! | z8 | %116
 z8 | z8 |!p! F8 | C8 | F, z!pp! F,/F,/F,/F,/ F, z F,/F,/F,/F,/ | %121
 F, z F,/F,/F,/F,/ F, z F,/F,/F,/F,/ | _D, z!pp! D,/D,/D,/D,/ D, z D,/D,/D,/D,/ | %123
 _G, z G,/G,/G,/G,/ G, z G,/G,/G,/G,/ | F, z F,/F,/"_cresc."F,/F,/ [F,_A,] z !//![F,_D]2 | %125
!mf! [_E,C] z !//!E,2 [C,_A,] z !//![C,A,]2 | %126
 [_D,_A,] z"_dim." !//![D,A,]2 [D,A,] z !//![^C,^G,]2 | %127
 [^C,=A,]!>(! z !//![C,A,]2 [C,A,]!>)! z !//![C,A,]2 | (D,D)!p!.D.D .D.D.D.D | %129
 (D,D).D.D (E,E).E.E |!>(!{/F} _d6!>)! (cB) |!<(! _d6 (c!<)!B) | %132
 _A/!<(!AA(F_D/) _A,/A,A,!<)!F,_D,/- | D,/_A,A,A,A,/- A,/A,A,A,A,/- |!>(! A,/_CCCC/- C/CC!>)!CC/ | %135
!p!!>(! =B,8!>)! |!pp! ._A,/.A,/(F,/A,/) A, z .A,/.A,/(F,/A,/) A, z | (C,=E,F,_A,) (.C.C.C.C) | %138
 (.C.C.C.C) (.C.C.C.C) | .C.C._B,.B,!<(! ._D.D.D.D!<)! | (_A,F,).E,.C, (A,F,).E,.C, | %141
 F,4- F,.G, !>!_A,2 | .F,.G, !>!_A,2 .F,.G, !>!A,2 | %143
!p! _E/E/ z/!<(! _F/ E/E/ z/ F/ E/E/ z/ F/ E/E/ z/ _D/!<)! | %144
 C/!<(!C/ z/ _D/ C/C/ z/ D/ C/C/ z/ D/ C/C/!<)! z/ B,/ |!f! (C3 _A) G/G/ z/ F/ E/E/ z/ G/ | %146
!<(! (C3!<)! _A) G/G/ z/ F/ E/E/ z/ G/ | !>!F8 |!<(! F4 (_D2 G,2)!<)! | %149
 (C !tenuto!C2 !tenuto!C2 !tenuto!C2 (C) | c) (!tenuto!c2!>(! !tenuto!c2 !tenuto!c2 c)!>)! | %151
!p! (=A2 B2 A2 B2) |!<(! (A2 B2)!<)!"_dim." (cB!>(!_A_G)!>)! |!>(! (F2 =G2 F2 =E2)!>)! | %154
!>(! (C4 B,4)!>)! |!pp! (=A,8 | [F,G,]8) | G,4!<(! [F,A,]4!<)! |!mf! [E,G,]4!>(! [F,A,]4!>)! | %159
!p! .F,/.F,/ z .F,/.F,/ z .F,/.F,/ z .F,/.F,/ z | %160
 [B,D]/[B,D]/ z [B,E]/[B,E]/ z [B,D]/[B,D]/ z [B,D]/[B,D]/ z | %161
 [B,D]/[B,D]/ z!<(! [B,D]/[B,D]/ z C/C/ z C,/C,/ z!<)! | %162
 [C,C]/[C,C]/ z"_cresc." C,/C,/ z C/C/ z C,/C,/ z |!f! C/C/ z C,/C,/ z C/C/ z C,/C,/ z | %164
 C/C/ z C,/C,/ z C/C/ z C,/C,/ z | C/C/ z C,/C,/ z C/C/ z C,/C,/ z | %166
!ff! C,6"_dim."!>(! [C,B,]2!>)! |!>(! [C,A,]8-!>)! |!p!!>(! [C,A,]8!>)! | (C/F/ A2 F)!p! (A2 C) z | %170
 z2!>(! (A2 F2 A,2!>)! |!pp! C4 B,4) | %172
 .A,/(A,/F,/A,/) .A,/(A,/F,/A,/)"_cresc." .A,/(A,/F,/A,/) .A,/(A,/F,/A,/) | %173
 .F/(F/A,/F/)!<(! .F/(F/A,/F/) .F/(F/A,/F/) .F/(F/!<)!A,/F/) | %174
!ff!{/A,} !>![FA]4!f! [F,A,]3 [F,A,]/[F,A,]/ |{/A,} !>![FA]4 [F,A,]3 [F,A,]/[F,A,]/ | %176
!<(! (C,/F,/A,/C/)!<)! (!>!C>A, F,) z!ff! C z | !>!C6 z2 |] %178
[M:6/8]!p! ((F,/A,/)(A,/D/)(D/A,/)) ((F,/A,/)(A,/D/)(D/A,/)) | %179
 ((F,/A,/)(A,/D/)(D/A,/)) ((F,/A,/)(A,/D/)(D/A,/)) | %180
 ((F,/A,/)(A,/D/)(D/A,/) (F,/A,/)(A,/D/)(D/A,/)) | %181
 ((F,/A,/)(A,/D/)(D/A,/) (F,/A,/)(A,/D/)(D/A,/)) | %182
 ((F,/A,/)(A,/D/)(D/A,/) (F,/A,/)(A,/D/)(D/A,/)) | %183
 ((F,/A,/)(A,/D/)(D/!<(!A,/)) ((F,/A,/)(A,/D/)(D/!<)!A,/)) | %184
 (F,/A,/)(A,/D/)(D/A,/)!>(! (F,/A,/)(A,/D/)(D/A,/)!>)! | %185
 (F,/A,/)(A,/D/)(D/!<(!A,/) (F,/A,/)(A,/D/)(D/A,/)!<)! | %186
!mf! (F,/A,/)(A,/D/)(D/A,/) (F,/A,/)(A,/D/)(D/A,/) | %187
 (F,/A,/)"_dim."!>(!(A,/D/)(D/A,/) (F,/A,/)(A,/D/)(D/A,/)!>)! |!pp! D, z z"^pizz." D, z z | %189
 [D,A,] z z D, z z |"^pizz." D, z z A, z z | D, z z"^cresc." D, z z | D,!>(! z z D,!>)! z z | %193
"^pizz." D, z!<(! z D, z!<)! z |!mf! C, z z"_cresc." [C,G,] z z | %195
!>(! [C,G,] z z!>)!!p! [C,G,] z z | %196
"^arco"!pp! ((E,/G,/)(G,/B,/)(A,/G,/)) ((E,/G,/)(G,/B,/)(A,/G,/)) | %197
 ((E,/G,/)(G,/B,/)(A,/G,/)) ((E,/G,/)(G,/B,/)(A,/G,/)) | %198
 ((E,/G,/)(G,/B,/)(A,/G,/)) ((E,/G,/)(G,/B,/)(A,/G,/)) | %199
!<(! (E,/"_molto cresc."G,/)(G,/B,/)(A,/G,/) (E,/G,/)(G,/B,/)(=B,/F,/)!<)! | %200
!f! ((F,/A,/)(A,/C/)(C/F,/))!>(! ((D,/F,/)(F,/D/)(D/F,/))!>)! | %201
!p! ((F,/!<(!A,/)(A,/D/)(D/A,/)) ((F,/A,/)(A,/D/)(D/A,/))!<)! | %202
 ((F,/A,/)(A,/"_cresc."F/)(F/A,/))!<(! ((F,/A,/)(A,/F/)(F/A,/))!<)! | %203
!mf! (A,/E/)!<(!(E/A/)(A/E/) (_B,/D/)(D/!<)!B/)(B/D/) | %204
!f! ((F,/C/)(C/F/)(F/C/))!>(! ((G,/"_dim."_E/)(E/G/)(G/G,/))!>)! | %205
 ((A,/!>(!D/)(D/A/)(A/D/))!>)!!p! ((D/G/)(G/D/)(D/F/)) | %206
 ((F/C/)(C/F/)!>(!(F/C/)) ((C/"_dim."E/)(E/C/)(C/!>)!E/)) | %207
!pp! ((C/F/)(F/C/)(C/F/) (F/C/)(C/A,/)(A,/F,/)) | %208
!p! ^C,3/2 z/ C,/4C,/4C,/4C,/4 C,3/2 z/ C,/4C,/4C,/4C,/4 | %209
 ^C,3/2 z/ C,/4C,/4C,/4C,/4 C,3/2 z/ C,/4C,/4C,/4C,/4 | %210
 ^C,3/2 z/ C,/4C,/4C,/4"_cresc."C,/4 C,3/2 z/ C,/4C,/4C,/4C,/4 | %211
 ^C,3/2 z/ C,/4C,/4C,/4"_cresc."C,/4 C,3/2!<(! z/ C,/4C,/4C,/4C,/4!<)! | %212
!f! =F,3/2 z/ F,/4F,/4F,/4F,/4 B,3/2 z/ B,/4B,/4B,/4B,/4 | %213
 D,3/2!>(! z/ D,/4D,/4D,/4D,/4 =B,3/2!>)! z/ B,/4B,/4B,/4B,/4 | %214
 CC,/ z/"_cresc." ^C,/4C,/4C,/4C,/4 D,3/2!<(! z/ ^D,/4D,/4D,/4D,/4!<)! | %215
!f! E,3/2 z/ E,/4E,/4E,/4E,/4 E,3/2 z/ E,/4E,/4E,/4E,/4 | %216
 F,3/2 z/ F,/4F,/4F,/4F,/4 F,3/2"_dim." z/ G,/4G,/4G,/4G,/4 | %217
!>(! A,3/2 z/ A,/4A,/4A,/4A,/4 B,3/2 z/!>)!!p! =B,/4B,/4B,/4B,/4 | %218
!>(! C3/2 z/ C/4C/4C/4C/4!>)!!pp! C3/2 z/ C/4C/4C/4C/4 | F,3/2 z/ F,/4F,/4F,/4F,/4 F, z z | %220
!mp! (^F,/A,/)(A,/C/)(C/A,/)!<(! (F,/A,/)(A,/C/)(C/A,/)!<)! | %221
!mf! (^F,/A,/)(A,/C/)!>(!(C/A,/) (F,/A,/)(A,/C/)(C/A,/)!>)! | %222
!p! (^F,/A,/)(A,/C/)!<(!(C/A,/) (F,/A,/)(A,/C/)(C/A,/)!<)! | %223
 (^F,/A,/)(A,/C/)!>(!(C/A,/) (F,/A,/)(A,/C/)(C/A,/)!>)! | %224
!p! (=F,/B,/)(B,/D/)!<(!(D/F,/) (F,/B,/)(B,/D/)(D/F,/)!<)! | %225
!f! (G,/B,/)!>(!(B,/C/)(C/B,/) (B,/C/)(C/B,/)!>)!"_dim."(B,/G,/) | %226
!pp! (F,/B,/)(B,/D/)(D/F,/)!>(! (F,/B,/)(B,/D/)(D/F,/)!>)! | %227
!pp! (G,/B,/)(B,/C/)(C/B,/) (B,/C/)(C/B,/)(B,/G,/) | %228
 (G,/B,/)(B,/!<(!G,/)(G,/B,/) (B,/G,/)(G,/B,/)(B,/G,/) | %229
 (F,/A,/)(A,/[F,D]/)!<)!([F,D]/A,/) (F,/A,/)(A,/D/)(D/A,/) | %230
 (D,/"_cresc."G,/)(A,/D/)(D/A,/) (D,/G,/)(A,/D/)(D/A,/) | %231
!<(! (F,/A,/)(A,/F,/)(F,/A,/) (A,/^F,/)(F,/A,/)(A,/F,/)!<)! | %232
!ff! (A,/C/)(C/E/)(E/C/) (E,/C/)(C/E/)(E/C/) | (A,/C/)(C/E/)(E/C/) (E,/C/)(C/E/)(E/"_dim."C/) | %234
 (A,/C/)(C/E/)(E/C/) (A,/C/)"_dim."(C/E/)(E/C/) | (A,/C/)(C/E/)(E/C/) (G,/C/)"_dim."(C/E/)(E/C/) | %236
 (G,/C/)(C/G,/)(G,/C/)!p! (C/A,/)(A,/C/)(C/A,/) | %237
"_dim." (G,/C/)(C/G,/)(G,/C/)!pp! (C/A,/)(A,/C/)(C/A,/) | %238
 (G,/C/)(C/G,/)(G,/C/) (C/G,/)(G,/C/)(C/G,/) | %239
!<(! (^F,/A,/)(A,/C/)(C/A,/) (F,/A,/)(A,/C/)(C/A,/)!<)! | %240
 (^F,/A,/)!>(!(A,/C/)(C/A,/) (F,/A,/)(A,/C/)(C/A,/)!>)! | %241
!pp! (^F,/A,/)(A,/C/)!<(!(C/A,/) (F,/A,/)(A,/C/)(C/A,/)!<)! | %242
"_cresc." (^F,/A,/)!<(!(A,/C/)(C/A,/) (F,/A,/)(A,/C/)(C/A,/)!<)! | %243
!ff! (=F,/B,/)(B,/D/)(D/F,/) (F,/B,/)(B,/D/)(D/F,/) | %244
!>(! (G,/B,/)(B,/C/)(C/B,/)!>)! (B,/C/)(C/B,/)!p!(B,/G,/) | %245
!pp! (F,/B,/)(B,/D/)(D/F,/)!>(! (F,/B,/)(B,/D/)(D/B,/)!>)! | %246
!pp! (G,/B,/)(B,/C/)(C/B,/)!<(! (B,/C/)(C/B,/)(B,/G,/)!<)! | %247
"_cresc." (G,/B,/)(B,/G,/)(G,/B,/)!<(! (B,/G,/)(G,/B,/)(B,/G,/)!<)! | %248
 (F,/A,/)(A,/D/)"^cresc."(D/A,/) (F,/A,/)(A,/D/)(D/A,/) | %249
 (D,/G,/)!<(!(A,/D/)(D/A,/) (D,/G,/)(A,/D/)(D/A,/)!<)! | %250
 (B,/D/)(D/B,/)(B,/"_cresc."D/) (D/=B,/)(B,/D/)(D/B,/) | %251
!f! (D/F/)(F/A/)(A/F/) (A,/F/)(F/A/)(A/F/) | (D/F/)(F/A/)(A/F/) (A,/F/)(F/A/)(A/F/) | %253
 (D/F/)(F/A/)(A/F/)"^dim." (A,/F/)(F/d/)(d/F/) | (D/F/)(F/A/)(A/F/)!mp! (C/F/)(F/C/)(C/F/) | %255
 (F,/A,/)(A,/D/)(D/"_dim."A,/) (F,/=B,/)(B,/D/)(D/B,/) | %256
 (F,/A,/)(A,/C/)(C/A,/)!>(! (F,/G,/)(G,/D/)(D/G,/)!>)! | %257
!pp! (F,/A,/)(A,/C/)(C/F,/) (F,/=B,/)(B,/F,/)(F,/B,/) | %258
 (F,/=A,/)(A,/C/)(C/A,/) (A,/^C/)(C/A,/)(A,/^C,/) | D,D, z"^pizz." D,D, z | %260
"^arco" D,D, z"^pizz." D,D, z |"^arco" D,D, z"^pizz." A,A, z |"^arco" D,D, z"^pizz." D,D, z | %263
"^arco" D,D, z"^pizz." D,D, z |"^arco" D,D, z"^pizz." D,D, z |"^arco"!>(! (!>!D,3 _D,3)!>)! | %266
!p!!>(! C,3 ^C,3!>)! |!pp! !///!D,3 !///!G,3 | !///!D,3 !///!G,3 |!<(! !///!D,6!<)! | %270
"_dim."!pp! !///!D,6 | !///!D,6 | (D,^C,D,"_morendo" C,D,C,) | (D,^C,D, C,D,C,) | !fermata!D,6 |] %275
[M:3/4] z6 | z6 | z6 | z6 |!p! (A,2 !>!B,3 G,) | A,2 !>!B,3 G, | A,2 !>!B,3 G, | A,2 z2 z2 | %283
!f! C z !>!F3 D | CD F2 z2 | C z !>!F3 D | CD A,2 z2 |!pp! (A2 !>!B3 G) | (A2 !>!B3 G) | %289
 (A2 !>!B3 G) | A2 z2 z2 | z2!ff! [DA][DA] [DA] z | z2 [Fc][Fc] [Fc] z | z6 | z6 |!p! FFFF(AF) | %296
 FFFF(AF) | FFFF(AF) | (AF)FF(AF) | FFFF(AF) | FFFF(AF) | FFFF(GF) | .F2 .F,2 z2 | z6 | %304
!p! CD A,2 z2 |!mf! C,D, F,2 z2 | z2 [F,C][F,C] [F,C] z |!ff! F,F,F,F,(A,F,) | F,F,F,F,(A,F,) | %309
 F,F,F,F,(A,F,) | F,F,F,F,(A,F,) |!ff! F,F,F,F,(A,F,) | F,F,F,F,(A,F,) | F,F,F,F,(G,F,) | %314
 C,2 z2 z2 |!mf! (C2 !>!D2 F,2) | (A,4 D2) | (C2 !>!D2 F,2) | FD C4 |!p!!>(! (A,2 !>!B,3 G,)!>)! | %320
 (A,2 !>!B,3 G,) |!>(! (A,2 !>!B,3 G,)!>)! |!pp! (A,4"_Fine." !fermata!C2) ||[K:Ab] z6 | z6 | z6 | %326
 z6 | z6 | z6 | z6 | z6 | F,F, !>!F,2 z2 | !>!D,D, !>!D,2 z2 | F,F, !>!F,2 z2 | D,D, !>!D,2 z2 | %335
 F,F, !>!F,2 z2 | !>!D,D, D,2 z2 | !>!F,F, F,2 z2 | !>!C,C, C,2 z2 | !>!D,D,"_dim." D,2 z2 | %340
 D,D, D,2"_dim." z2 | D,D,!>(! D,2 z2 | A,A, A,2!>)! z2 |!p! C,C, C,2 z2 | C,C, C,2"_dim." z2 | %345
!pp! F,F, F,2 z2 | C,4 z2 |!p! .C,2 .F,2 .G,2 | .A,2 .G,2 .F,2 | .A,2 .C2 z .B, | .A,2 .G,2 .F,2 | %351
 .E,2 .F,2 .G,2 | .A,2 .B,2 z .=B, | .C2 .A,2 .F,2 | .C,2 .E,2 .A,2 |!ff! A,z/G,/G,z/F,/ F,2 | %356
 A,z/G,/G,z/F,/ F,2 | A,z/G,/G,z/F,/ F,2 | A,z/G,/G,z/F,/ F,2 | A,z/G,/G,z/F,/ F,2 | %360
 A,z/G,/G,z/F,/ F,2 | A,z/G,/G,z/F,/ F,2 | E,z/D,/D,z/C,/ C,2 |"_dim." F,2!>(! z2 F,F,!>)! | %364
 _F,"_dim."F, z2 F,F, | _F,F, z2!>(! F,F, | E,E, z2 E,E,!>)! |!p! F,F, z2!>(! A,A, | [C,B,]6-!>)! | %369
!pp! B,2 =A,2 _A,2- | A,6 ||[K:F] C z !>!F3 D | CD F2 z2 | C z !>!F3 D | CD A,2 z2 | %375
!p! (A,2 B,2 F,G,) | (A,2 B,2 F,G,) | (A,2 B,2 F,G,) | A,2 z2 z2 | z2!<(! (D2 G2-!<)! | %380
!>(! G2 D2)!>)! z2 | z2!<(! (D2 G2-!<)! |!>(! G2 D2)!>)! z2 |!pp! (A2 !>!B3 G) | (A2 !>!B3 G) | %385
 (A2 !>!B3 G) | A4 z2 |!p! CD F2 z2 |!mf! CD A,2 z2 |!f! cd f2 z2 |!ff! cd A2 z2 |!f! FFFF!>!AF | %392
 FFFF!>!AF | FFFF!>!AF | FFFF!>!AF | FFFFAF | FFFFAF | FFFF(GF) | .F2 .F,2 z2 | z2!f! AA A2 | %400
 z2!mf! CC C2 | z2"_dim." A,A, A,2 | z2!p! C,C, C,2 |!p! F,F,F,F,(A,F,) | F,F,F,F,(A,F,) | %405
 F,F,F,F,(A,F,) | F,F,F,F,(A,F,) | F,F,F,F,(A,F,) | F,F,F,F,(A,F,) | F,F,F,F,(A,F, | C,2) z2 z2 | %411
!ff! (A2 F4) | (A2 F4) | (A2 F4) | (([FA]2 C4)) |!p! (A2 B3 G) | (A2 B3"_dim." G) | (A2 B3 G) | %418
!>(! A2 B4!>)! |!pp!"_legato" (AxAxA) x | AxAxA x | AxAxA x | A6 ||[K:Ab][K:treble]!pp! (c6 | %424
 f4 d2) | (c4 d2 | f4) z2 | (c6 | f4 d2) | (c4 d2 | c4) z2 |[K:alto]!f!!<(! (C,2 !>!B,2 A,2)!<)! | %432
!<(! (C,2 !>!B,2 A,2)!<)! |!<(! (C,2 !>!B,2 A,2)!<)! |!<(! (C2 !>!B2 A2)!<)! | %435
!<(! (C2 !>!B2 A2)!<)! |!<(! (C2 !>!B2 A2)!<)! |!<(! (C2 !>!B2 A2)!<)! |!<(! (E,2 !>!D2 C2)!<)! | %439
 (C2 !>!G2 F2) | (D2 !>!A2 _F2) | (D2 E2"_dim." _F2) | (E2 B2 A2) | (F2 =DE ^E2 | %444
!>(! G2 =E2 F2)!>)! |!p! (D2 C3 B, |!>(! A,4)!>)! z2 | %447
!ppp! (3:2:1!/!C,3 (3:2:1!/!F,3 (3:2:1!/!G,3 | (3:2:1!/!A,3 (3:2:1!/!G,3 (3:2:1!/!F,3 | %449
 (3:2:1!/!A,3 (3:2:1!/!C3 (3:2:1!/!B,3 | (3:2:1!/!A,3 (3:2:1!/!G,3 (3:2:1!/!F,3 | %451
 (3:2:1!/!E,3 (3:2:1!/!F,3 (3:2:1!/!G,3 | (3:2:1!/!A,3 (3:2:1!/!B,3 (3:2:1!/!=B,3 | %453
 (3:2:1!/!C3 (3:2:1!/!A,3 (3:2:1!/!F,3 | (3:2:1!/!E,3 (3:2:1!/!_F,3 (3:2:1!/!E,3 | %455
!ff! (C,2 =D,2!<(! =E,2) | (F,2 G,2 A,F)!<)! | (=E4 F2) | (C2 B,2 A,2) | (A,4 =E,2) | %460
 (F,2 G,2 A,F) | (=E4 FF,) | F,4 z2 | (_E,2"_molto" _F,2 E,2 |"_dim." E,4!>(! C,2) | %465
 (D,4 C,2)!>)! |!p! (!>!B,2 A,2!>(! G,2) | (A,2 F,2 E,2)!>)! |!pp! (D,4 C,B,) | (B,2 A,2 G,2 | %470
 A,4) z2 ||[K:F][M:2/4]!p! !>!F,>F,F,F,- | F,.F,.F,.F, | F,>F,F,F,- | F,.F,.F,.F, | F,>F,F,F,- | %476
 F,.F, .F,.F, | F,>F,F,F,- | F,.F,.F,.F, | F,>F,F,F,- | F,.F,.F,.F, | F,>F,F,F,- | F,.F,.F,.F, | %483
 F,>F,F,F,- | F,.F,"_cresc.".F,.F, | F,>F,!<(!F,F,- | F,.F,.F,.F, | F,>F, F,F,!<)! | %488
!mf! !>!A,A,!<(! !>!G,G, | !>!A,A, !>!G,G,!<)! | !>![G,D]G, !>![G,D]G, | A,F, !>!C2 | A,F, !>!C2 | %493
 A,F, !>!C2 | A,F, !>!C2 | !>!A.F"_dim." .A,.C | !>!A.F .A,.C |!mf! !>!A.F .A,.C |!mp! .A.F .A,.C | %499
!p! .A.F .A,.C | .A.F .A,.C | !>!A.F .A,.C | !>!A.F .A,.C | .A,.C!pp! !>!AF | A,C !>!AF | %505
 A,C !>!AF | A,C !>!AF | A,C !>!AF | A,C !>!AF | A,C !>!AF | A,C !>!AF | A,C !>!AF | A,C !>!AF | %513
 A,C !>!AF | .=B,.^G,!<(! .B,.=E | .C.A, .C.E | .=B,.^G,!<)! .B,.E |!ff! A, z A, z | A, z A, z | %519
"_dim." .A,.E,!p! .A,.E, |!>(! .A,.E, .A,.A!>)! |!pp! AF A,C | A,C !>!AF | A,C !>!AF | !>!AF A,C | %525
 DF !>!BF | !>!BF DB, | A,C !>!AF | A,C !>!AF | A,C !>!AF |!<(! A,C !>!AF!<)! |!<(! AF A,C!<)! | %532
!mf! D=B, DB, | C"_cresc."G, EC | D=B, DF |!ff! C z C, z | C, z C, z | C,F,!mp! .C.G, | %538
!>(! .C.G, .C.G,!>)! |!pp! _A,>A,A,A,- | A,._A,.A, z | _A,>A,A,A,- | A,._A,.A, z | _A,>A,A,A,- | %544
 A,._A,.A, z | _A,>A,A,A,- | A,._A,.A, z | G,>G,G,G,- | G,.G,.G, z | G,>G,G,G,- | G,.G,.G, z | %551
 G,>G,G,G,- | G,.G,.G, z | _D>DDD- | D._D.D z | _D>DDD- | D._D.D z | _A,>A,A,A,- | A,._A,.A, z | %559
 _A,>A,A,A,- | A,._A,.A, z | _A,>A,A,A,- |!<(! A,._A,.A, z | [F,B,]>[F,B,][F,B,][F,B,]- | %564
 [F,B,]!<)!!mf!.[F,B,].[F,B,] z | _A,>A,A,A,- | A,._A,"_dim.".A, z |!>(! (_A,2 F,2 | %568
 ^F,2 G,2)!>)! |!pp! !//!_A,4 | !//!_A,4 | !//!_A,4 | !//!_A,4 | (!//-!G,2 D,2 | !//-!G,2 D,2 | %575
 !//-!G,2 D,2 | !//-!G,2 D,2) |!p! (_G,>_A, G,)._D, | (_G,>_A, G,)._D, | (_G,>_A, G,)._D, | %580
 (_G,>_A, G,)._D, |!pp! !/!C,!/!_A, !/!C,!/!A, | !/!C,"_cresc."!/!_A, !/!C,!/!A, | %583
!<(! !/!_A,!/!C !/!A,!/!C | !/!_A,!/!C !/!A,!/!C!<)! |!f! (C/_D/C/C,/) (C/D/C/C,/) | %586
 (C/_D/C/C,/) (C/D/C/C,/) | (C/_D/C/C,/) (C/D/C/C,/) | (C/_D/C/C,/) (C/D/C/C,/) | %589
 !/!C!>(!!/!_D!/!C!/!D | !/!C!/!=B,!/!C!/!_B,!>)! |!p! !/!_A,!>(!!/!B,!/!A,!/!B, | %592
 !/!_A,!/!G,!/!A,!>)!!/!G, |!pp! !/!F,!/!C !/!=A!/!F | !/!F,!/!C !/!A!/!F | !/!F,!/!C !/!A!/!F | %596
 !/!A!/!F !/!A,!/!C | !/!D!/!F !/!B!/!F | !/!B!/!F !/!D!/!B, | !/!A,!/!C !/!A!/!F | %600
 !/!A,!/!C"^cresc." !/!A!/!F |!<(! !/!A,!/!C !/!A!/!F | !/!A,!/!C !/!A!/!F!<)! | %603
 !/!A!/!F !/!A,!mf!!/!C | !/!^C!/!A, !/!A,!/!C |!<(! !/!D!/!A, !/!A,!/!D | !/!E!/!C !/!C!/!E | %607
 !/!F!/!C !/!C!/!F!<)! |!f! !/!G!/!_E !/!G!/!_A | !/!G!/!_E !/!G!/!_A | %610
 !/!G!/!_E !/!_A"_cresc."!/!E | !/!G!/!_E !/!_A!/!E |!<(! [C_B] z [CB] z | [CB] z [CB]!<)! z | %614
!<(! !//![C,B,]4 | !//![C,B,]4!<)! | [C,A,] z!ff! !>!FD | !>!CA, !>!F,D, | !>!D,>D, D,D, | %619
 D, z !>!F._D | !>!C._A, !>!F,._D, | _D, z z D, | _D,>D, D,"_dim."D, |!p! _D, z z D, | %624
!>(! _D,>D, D,D,!>)! | _D, z z2 | z4 | z4 | z4 |!pp! (_D,4 | F,4 | _G,4 | D,4-) | D,4- | D,4 | %635
 _E,4- | E,4- | (E,4 | =E,2 F,2) | (F,4 | A,2 B,2 | A,) z z2 | z2 z!mf! F, | F, z !>!F>D | %644
 .C.A, .F,.D, |"_dim." F, z z F, | F, z z F, | F, z z2 | z4 ||!pp! (E4 |!<(! A,4-!<)! | %651
!>(! A,4-!>)! | A,4) |!<(! (A,4!<)! | G,4) | (G,4 |!>(! ^G,4)!>)! |!pp! A,4 | (A,3 F,) | %659
 (^D,2 E,2 | B,2 =B,2) |!<(! (C2 A,2!<)! | F4) |!>(! (E4!>)! |!p! F2 D2) |!pp! (C2 =B,2 | %666
!<(! D2 C2-!<)! |!>(! C2)!>)! z2 | z4 |!p! (A,4 | F,4) |!>(! (C,4!>)! | F,4) |!<(! E,4!<)! | %674
!>(! E,4!>)! | E,4 |!>(! E,4!>)! | (A,4 |!<(! F,4)!<)! |"^cresc." (C,4 | F,4) | E,4- | E,4 | %683
 (E,2 C2) |!>(! (DF D!>)!F) |!pp! (E2 ^D2 | =F2 E2) | (A2 =G3/2A/4G/4 | E4) | ^G,>A, G,/G,/G,/G,/ | %690
 !//!^G,4 | ^G,>A, G,/G,/G,/G,/ | !//!^G,4 | A,>=B, A,/A,/A,/A,/ | !//!A,4 | A,>=B, A,/A,/A,/A,/ | %696
 !//!A,4 | ^G,>A, !//!G,2 |"_cresc." (^G,/E/)E/E/!<(! E/E/E/E/!<)! | (^G,/E/)E/E/ E/E/E/E/ | %700
"_cresc."!p! (E/F/)F/F/ (F/^F/)F/!<(!F/ | (^F/G/)G/G/ (F/G/)G/G/ | (=F/G/)G/G/ (F/G/)G/G/ | %703
 (F/G/)G/G/!<)!!ff! (G/C/)C/C/ | C z !>!A.F | .A,.C !>!A.F | .A,.C !>!A.F | !>!A.F .A,.C | %708
 .D.F .B.F | !>!B.F .D.B, | .A,.C !>!A.F | .A,.C !>!A.F | .A,.C !>!A.F | .A,.C !>!A.F | %714
 !>!A.F .A,.C |!mf! =B,^G, B,E |"_cresc." CA, CE | =B,!<(!^G, B,!<)!E |!f! A, z A, z | A, z A, z | %720
!mp! C4- |!>(! C4!>)! |!ppp! ._D.F .D.F | ._D.F .D.F | ._D.F .D.F | ._D.F .D.F | .B,._D .B,.D | %727
!pp! .B,._D .B,.D | ._D.F .D.F | ._D.F .D.F | ._D.F .D.F | ._D.F .D.F | ._D.F .D.F | %733
!ppp! _D z .C.B, | _E, z z2 | (6:4:1!/![_E,C]6 | (6:4:1!/![_E,C]6 | (6:4:1!/![_E,C]6 | %738
 (3:2:1!/!_E,3 (3:2:1!/!E,3 | (6:4:1!/![_E,_D]6 | (3:2:1!/!^C3"_cresc." C z | %741
!<(! (3:2:1!/!^C3 C z | (3:2:1!/!D3 D!<)! z | (3:2:1!/![DF]3"_cresc." [DF] z | %744
!<(! (3:2:1!/![DF]3 [DF] z | (3:2:1!/![DF]3 [DF]!<)! z |!f! (3CCC (DC) | %747
!>(! (3A,"^dim."A,A, (B,A,) | (3F,F,F, (B,A,)!>)! | (3:2:1!/!F,3 (A,G,) |!p! C,4- | C,4- | C,4- | %753
 (C,4 |!<(! F,2 C,2) | (F,2 C,2!<)! | F,2 C,)!>(!(C, | F,2!>)! C,F,) |!pp! E,4- | E,4- | E,4- | %761
 E,4- |!<(! E,4- | E,4!<)! | F,4- |!>(! F,4!>)! |!p! [C,B,]4- |!>(! [C,B,]4!>)! |!pp! .C>.C.CC- | %769
 .C.C.C z | .C>.C.CC- | .C.C.C z | .C>.C!<(!.CC- | .C.C.C!<)! z | .[B,D]>.[B,D].[B,D]!mf![B,D]- | %775
 .[B,D].[B,D].[B,D] z |"_dim." .C>.C.C!>(!C- | .C.C.C!>)! z |!p!!>(! .C,>.C,.C,!>)!C,- | %779
"_dim." .C,.C,.C, z |!p! (3(A,F,A, F,) z | (3(A,F,A, F,) z | (3(A,F,A, F,) z | (3(A,F,A, F,) z | %784
 (3(A,"_più cresc."F,A, F,) z | (3(_A,F,A, F,) z | (3(_A,F,A, F,) z |!<(! (3(_A,F,A, F,) z!<)! | %788
 (3(_A,F,A,)!f! (3_AAA | (3_AAA!<(! (3AAA | (3:2:1_A3 (3:2:1A3!<)! |!ff! [F=A] z (3(uCA,).F, | %792
 C, z (3(CA,).F, | C, z (3(CA,).F, | C, z (3(BA).G |!f! F z uC>!>(!.D!>)! | .C.A, .F,.D, | %797
 C, z uC>D | .C.A, .F,.D, | C, z _D>_E | ._D._A, .F,._E, | _D, z!<(! _D>_E | ._D._A, .F,!<)!._E, | %803
!f! !>!_D,4 | !>!_A,4 |!f! ^G,2 !>!=DG, | !>!C=A, !>!CA, | !>!_B,G, A,C | B,_D DF | !>!_DC !>!=EF | %810
 !>!_DC !>!EF | !>!_DC !>!EF | !>!EF !>!=DE |!ff! (3[A,F][F,A,][F,A,] (3:2:1!/![F,A,]3 | %814
 (3:2:1!/![F,A,]3 (3:2:1!/![F,A,]3 | (3:2:1!/![F,A,]3 (3:2:1!/![F,A,]3 | %816
 (3:2:1!/![F,A,]3 (3:2:1!/![F,A,]3 | (3:2:1!/![F,A,]3 (3:2:1!/![F,A,]3 | %818
 (3:2:1!/![F,A,]3 (3:2:1!/![F,A,]3 | (3:2:1!/![F,A,]3 (3:2:1!/![G,F]3 | %820
 (3:2:1!/![A,F]3 (3:2:1!/![G,E]3 | [A,F] z!ff! !>!F>G | !>!F>C !>!A,>G, | F,2 !>!F>G | %824
 !>!F>C !>!A,>G, | F,2 !>!F>G | !>!F>C !>!A,>G, | !>!F,2 !>!G,2 | !>!A,2 !>!C2 | .F,.F, .G,.G, | %830
 !>!A,2 !>!C2 | .F,.F, .G,.G, | !>!A,2 !>!C2 | !>![C,A,]2 !>![C,B,]2 | !>![C,A,]2 !>![C,B,]2 | %835
 !>![C,A,]2 !>![C,B,]2 | !>![C,A,]2 !>![C,B,]2 | (3CFF (3(F_E).E | (3(_ED).D (3(D_D).D | %839
 (3(_DC).C!<(! (3(CB,).B, | (3(B,A,).A, (3:2:1!/!A,3 | (3(A,!<)!_A,).A,!fff! (3:2:1!/![A,F]3 | %842
 (6:4:1[_A,F]6 | [_A,F]2 z2 | [_A,_A]2 z2 | [=A,F=A]2 z2 | [C,B,E]2 z2 | [C,A,F] z !>!F>D | %848
 !>!C>A, !>!F,>D, | F, z [A,F]>[A,F] | !>![A,F]4 | F,4 | !fermata!F,4 |] %853
V:6
 x8 | x8 |: x8 | x8 | x8 | x8 | x8 | x8 | x8 | x8 | x8 | x8 | x8 | x8 | x8 | x8 | x8 | x8 | x8 | %19
 x8 | x8 | x8 | x8 | x8 | x8 | x8 | x8 | x8 | x8 | x8 | x8 | x8 | x8 | x8 | x8 | x8 | x8 | x8 | %38
 x8 | x8 | x8 | x8 | x8 | x8 | x8 | x8 | x8 | x8 | x8 | x8 | x8 | x8 | x8 | x8 | x8 | x8 | x8 | %57
 x8 | x8 | x8 | x8 | x8 | x8 :| x8 | x8 | x8 | x8 | x8 | x8 | x8 | x8 | x8 | x8 | x8 | x8 | x8 | %76
 x8 | x8 | x8 | x8 | x8 | x8 | x8 | x8 | x8 | x8 | x8 | x8 | x8 | x4 !///!B,4 | !///!B,4 !///!B,4 | %91
 x8 | x8 | x8 | x8 | x8 | x8 | x8 | x8 | x8 | x8 | x8 | x8 | x8 | x8 | x8 | x8 | x8 | x8 | x8 | %110
 x8 | x8 | x8 | x8 | x8 | x8 | x8 | x8 | x8 | x8 | x8 | x8 | x8 | x8 | x8 | x8 | x8 | x8 | x8 | %129
 x8 | x8 | x8 | x8 | x8 | x8 | x8 | x8 | x8 | x8 | x8 | x8 | x8 | x8 | x8 | x8 | x8 | x8 | x8 | %148
 x8 | x8 | x8 | x8 | x8 | x8 | x8 | x8 | x8 | F,4 x4 | x8 | x8 | x8 | x8 | x8 | x8 | x8 | x8 | x8 | %167
 x8 | x8 | x8 | x8 | x8 | x8 | x8 | x8 | x8 | x8 | x8 |][M:6/8] x6 | x6 | x6 | x6 | x6 | x6 | x6 | %185
 x6 | x6 | x6 | x6 | x6 | x6 | x6 | x6 | x6 | x6 | x6 | x6 | x6 | x6 | x6 | x6 | x6 | x6 | x6 | %204
 x6 | x6 | x6 | x6 | x6 | x6 | x6 | x6 | x6 | x6 | x6 | x6 | x6 | x6 | x6 | x6 | x6 | x6 | x6 | %223
 x6 | x6 | x6 | x6 | x6 | x6 | x6 | x6 | x6 | x6 | x6 | x6 | x6 | x6 | x6 | x6 | x6 | x6 | x6 | %242
 x6 | x6 | x6 | x6 | x6 | x6 | x6 | x6 | x6 | x6 | x6 | x6 | x6 | x6 | x6 | x6 | x6 | x6 | x6 | %261
 x6 | x6 | x6 | x6 | x6 | x6 | x6 | x6 | x6 | x6 | x6 | x6 | x6 | x6 |][M:3/4] x6 | x6 | x6 | x6 | %279
 x6 | x6 | x6 | x6 | x6 | x6 | x6 | x6 | x6 | x6 | x6 | x6 | x6 | x6 | x6 | x6 | x6 | x6 | x6 | %298
 x6 | x6 | x6 | x6 | x6 | x6 | x6 | x6 | x6 | x6 | x6 | x6 | x6 | x6 | x6 | x6 | x6 | x6 | x6 | %317
 x6 | x6 | x6 | x6 | x6 | x6 ||[K:Ab] x6 | x6 | x6 | x6 | x6 | x6 | x6 | x6 | x6 | x6 | x6 | x6 | %335
 x6 | x6 | x6 | x6 | x6 | x6 | x6 | x6 | x6 | x6 | x6 | x6 | x6 | x6 | x6 | x6 | x6 | x6 | x6 | %354
 x6 | x6 | x6 | x6 | x6 | x6 | x6 | x6 | x6 | x6 | x6 | x6 | x6 | x6 | x6 | C,6 | C,6 ||[K:F] x6 | %372
 x6 | x6 | x6 | x6 | x6 | x6 | x6 | x6 | x6 | x6 | x6 | x6 | x6 | x6 | x6 | x6 | x6 | x6 | x6 | %391
 x6 | x6 | x6 | x6 | x6 | x6 | x6 | x6 | x6 | x6 | x6 | x6 | x6 | x6 | x6 | x6 | x6 | x6 | x6 | %410
 x6 | A,6 | A,6 | A,6 | x6 | x6 | x6 | x6 | x6 | x (AxAxA) | x AxAxA | x AxAxA | !fermata!A6 || %423
[K:Ab][K:treble] x6 | x6 | x6 | x6 | x6 | x6 | x6 | x6 |[K:alto] x6 | x6 | x6 | x6 | x6 | x6 | x6 | %438
 x6 | x6 | x6 | x6 | x6 | x6 | x6 | x6 | x6 | x6 | x6 | x6 | x6 | x6 | x6 | x6 | x6 | x6 | x6 | %457
 x6 | x6 | x6 | x6 | x6 | x6 | x6 | x6 | x6 | x6 | x6 | x6 | C,6- | C,6 ||[K:F][M:2/4] x4 | x4 | %473
 x4 | x4 | x4 | x4 | x4 | x4 | x4 | x4 | x4 | x4 | x4 | x4 | x4 | x4 | x4 | x4 | x4 | x4 | x4 | %492
 x4 | x4 | x4 | x4 | x4 | x4 | x4 | x4 | x4 | x4 | x4 | x4 | x4 | x4 | x4 | x4 | x4 | x4 | x4 | %511
 x4 | x4 | x4 | x4 | x4 | x4 | x4 | x4 | x4 | x4 | x4 | x4 | x4 | x4 | x4 | x4 | x4 | x4 | x4 | %530
 x4 | x4 | x4 | x4 | x4 | x4 | x4 | x4 | x4 | x4 | x4 | x4 | x4 | x4 | x4 | x4 | x4 | x4 | x4 | %549
 x4 | x4 | x4 | x4 | x4 | x4 | x4 | x4 | x4 | x4 | x4 | x4 | x4 | x4 | x4 | x4 | x4 | x4 | x4 | %568
 x4 | x4 | x4 | x4 | x4 | x4 | x4 | x4 | x4 | x4 | x4 | x4 | x4 | x4 | x4 | x4 | x4 | x4 | x4 | %587
 x4 | x4 | x4 | x4 | x4 | x4 | x4 | x4 | x4 | x4 | x4 | x4 | x4 | x4 | x4 | x4 | x4 | x4 | x4 | %606
 x4 | x4 | x4 | x4 | x4 | x4 | x4 | x4 | x4 | x4 | x4 | x4 | x4 | x4 | x4 | x4 | x4 | x4 | x4 | %625
 x4 | x4 | x4 | x4 | x4 | x4 | x4 | x4 | x4 | x4 | x4 | x4 | x4 | x4 | x4 | x4 | x4 | x4 | x4 | %644
 x4 | x4 | x4 | x4 | x4 || x4 | x4 | x4 | x4 | x4 | x4 | x4 | x4 | x4 | x4 | x4 | x4 | x4 | x4 | %663
 x4 | x4 | x4 | x4 | x4 | x4 | x4 | x4 | x4 | x4 | x4 | x4 | x4 | x4 | x4 | x4 | x4 | x4 | x4 | %682
 x4 | x4 | x4 | x4 | x4 | x4 | x4 | x4 | x4 | x4 | x4 | x4 | x4 | x4 | x4 | x4 | x4 | x4 | x4 | %701
 x4 | x4 | x4 | x4 | x4 | x4 | x4 | x4 | x4 | x4 | x4 | x4 | x4 | x4 | x4 | x4 | x4 | x4 | x4 | %720
 x4 | x4 | x4 | x4 | x4 | x4 | x4 | x4 | x4 | x4 | x4 | x4 | x4 | x4 | x4 | x4 | x4 | x4 | x4 | %739
 x4 | x4 | x4 | x4 | x4 | x4 | x4 | x4 | x4 | x4 | x4 | x4 | x4 | x4 | x4 | x4 | x4 | x4 | x4 | %758
 x4 | x4 | x4 | x4 | x4 | x4 | x4 | x4 | x4 | x4 | x4 | x4 | x4 | x4 | x4 | x4 | x4 | x4 | x4 | %777
 x4 | x4 | x4 | x4 | x4 | x4 | x4 | x4 | x4 | x4 | x4 | x4 | x4 | x4 | x4 | x4 | x4 | x4 | x4 | %796
 x4 | x4 | x4 | x4 | x4 | x4 | x4 | x4 | x4 | x4 | x4 | x4 | x4 | x4 | x4 | x4 | x4 | x4 | x4 | %815
 x4 | x4 | x4 | x4 | x4 | x4 | x4 | x4 | x4 | x4 | x4 | x4 | x4 | x4 | x4 | x4 | x4 | x4 | x4 | %834
 x4 | x4 | x4 | x4 | x4 | x4 | x4 | x4 | x4 | x4 | x4 | x4 | x4 | x4 | x4 | x4 | x4 | x4 | x4 |] %853
V:7
 z4 z2 z!pp! .F,, | F,,8- |: F,,8- | F,,8- | F,,8- | (F,,4- F,,A,,C,A,,) | F,,3 z z2 z"^pizz." F, | %7
 z A,, z C, z2 F,F,, |"^cresc." z2 z D,, z!<(! F,,A,,C,!<)! |"_cresc." F, z A,F, DCF, z | %10
!f!"^arco" (F,,/A,,/C,/F,/) !>!F,>.D, C,2 z C, | (F,,/!<(!A,,/C,/F,/)!<)! !>!F,>.D, C,2 z C, | %12
 (D,/!<(!F,/A,/D/)!<)! !>!D>.B, A,2 z A, | (D,/!<(!F,/A,/D/)!<)! !>!D>.B, A,2 z A, | %14
!ff! D,>B,, D,>B,, D,>B,, D,>B,, |!>(! D,>"_dim."B,, D,>B,, D,>B,,!>)!!p! D,>B,, | %16
"_più piano" (D,2- D,/F,/A,/D/) (A,2- A,/G,/F,/D,/) | D, z z2 z4 | z8 |!p!!<(! (F4 =B,4)!<)! | %20
"^cresc."!<(! C8!<)! |!f! (C4 B,4) |!>(! (_A,4 G,4)!>)! | %23
 F,/F,/ z F,/F,/"_dimin." z F,/F,/ z F,/F,/ z | %24
 [F,=A,]/[F,A,]/!>(! z [F,=A,]/[F,A,]/ z [F,=A,]/[F,A,]/ z!>)! [F,=A,]/[F,A,]/ z | %25
 =E, z z2 z2!pp!"^pizz." [A,,E,]2 | z2 [A,,E,]2 z2 [A,,E,]2 | z!<(! A,, z =B,, z C, z!<)! D, | %28
 E,E,, z E, E,E,, z"_arco" E,, |!>(! A,,4!>)! .A,,.=B,, !>!C,2 | .A,,.=B,, !>!C,2 .A,,.B,, !>!C,2 | %31
!<(! C,=B,,/B,,/ C,B,,/B,,/ C,B,,/B,,/ C,!<)!^G,,/G,,/ | %32
 C,"_cresc."^G,,/G,,/ C,G,,/G,,/ C,G,,/G,,/ A,,D,,/D,,/ | !>!E,,4 !>!E,3 .E,, | %34
!ff! !>!E,,4 !>!E,3 .E,, |!ff! (!//-!G,,2 A,,2) (!//-!G,,2 A,,2) | %36
!<(! (G,,/A,,/G,,/A,,/) (G,,/F,,/E,,/D,,/)!<)! D,,4 | %37
 E,,/E,,/ z/ E,,/!>(! E,,/E,,/ z/ E,,/ E,,/E,,/ z/ E,,/ E,,/E,,/ z/ E,,/!>)! | %38
!p! E,/E,/ z/ E,/!>(! E,/E,/ z/ E,/ E,/E,/ z/ E,/ E,/E,/ z/ E,/!>)! |!pp! G,8- | %40
!<(! G,2 (F,E,!<)!!>(! D,4)!>)! |!p!"_dim."!>(! E,8 | E,,8!>)! |!ppp! A,,8 | D,8 | %45
!<(! (D,4 ^C,4)!<)! |!>(! ^G,,4!>)! A,,4 |!pp! A,8 | z4 =B,4- |!<(! B,4 ^C,4!<)! | %50
!f! ^G,,4!>(! ^C,4!>)! | ^F,6 =B,2 |"_dim."!>(! ^F,6 =B,,2!>)! |!pp! (^F,,6 =B,,2) | %54
!<(! (=G,,6 C,2)!<)! |!<(! =B,,4!<)!!f! (^C,2 A,,2) | ^G,,4 ^A,,4 | (=B,,2"^dim." ^C,2 D,2 =F,2) | %58
!>(! (D,2 D,,2!p! E,,4)!>)! |!p! A,,8- |!>(! A,,8-!>)! |!pp! A,,2 z2"_pizz." A,,2 z2 | %62
 A,,2 z2 A,,2 z2 :| z2"_arco"!pp! ^F,,6 | ^F,,6 F,,2- | F,,4 ^F,,4- | F,,2"_cresc." ^F,,6 | %67
!<(! (!//-!E,,2 ^G,,2) (!//-!^F,,2 A,,2)!<)! | %68
!mf! (E,,/^G,,/E,,/G,,/)!<(! (A,,/^F,,/A,,/F,,/) (G,,/^C,/G,,/C,/) (G,,/^B,,/G,,/B,,/)!<)! | %69
!f! (E,,/^G,,/E,,/G,,/) (A,,/^F,,/A,,/F,,/) (G,,/^C,/G,,/C,/) (G,,/^B,,/G,,/B,,/) | %70
 (E,,/^G,,/E,,/G,,/) (A,,/^F,,/A,,/F,,/) (G,,/^C,/G,,/C,/) (G,,/^B,,/G,,/B,,/) |!ff! !>!^C,8 | %72
 ^C,/C,/ C,3- C,4 |!mf! (^C4!>(! E4)!>)! |!p!!>(! E6 (E^C)!>)! | %75
!pp! (^C2 ^C,) z!<(! (C,2 ^C,,) z!<)! | %76
!f! (^C^C,/) z/ (C,^C,,/) z/!>(! (C,,C,/) z/ (C,C,,/) z/!>)! | %77
!ff! (=D,,D,/) z/!>(! (D,D/)"_dim." z/ (DD,/) z/ (D,D,,/) z/!>)! | %78
!p! (DD,/) z/!>(! (D,D,,/) z/ (D,,A,,/) z/ (A,,D,,/) z/!>)! | %79
"_pizz."!pp! .D,,.A,, .D,,.A,, .D,,.A,, .D,,.A,, | .D,,.A,, .D,,.A,, .D,,.A,, .D,,.A,, | %81
 .D,,A,, D,,A,, ^F,,A,, F,,A,, | ^F,,A,, F,,A,, F,,A,, D,,A,, |!pp!"^arco" D,8- | %84
 D,(.D,.D,.D,) (.D,.D,.D,.D,) | =C,8- | C,(.C,.C,.C,) (.C,.C,.C,.C,) | %87
 =B,, =B,2"^cresc." B,,2 B,2 B,,- | B,,!<(! =B,2 =B,,2 B,2 B,,!<)! | %89
!ff! !>!_B,,>C, .D,/.B,,/ z !>!_B,,>C, .D,/.B,,/ z | %90
 (B,,/!<(!C,/E,/G,/) !>!G,>B,,!<)! (B,,/!<(!C,/E,/G,/) !>!G,>B,,!<)! | %91
!f! !>!B,,.C, !>!B,,.C, !>!B,,.C, !>!B,,.C, | !>!B,,.C, !>!B,,.C, !>!B,,.C, !>!B,,.C, | %93
 B,, z z2 z4 |!ff! !>!C/C/C/E,/ !>!G,/G,/G,/C,/ !>!_D,/D,/D,/G,,/ !>!B,,/B,,/B,,/E,,/ | %95
 F,, z z2 z4 | z8 | z8 | z8 | z8 | z8 |!f! !>!F,,2 !>!_A,,2 !>!F,,2 !>!_E,,2 | %102
 !>!C,,2 .F,,._E,, !>!C,,2 .F,,.E,, | !trill(!T=D,,8 | !trill(!T=D,,8{^C,,D,,} | F,,2 z2 F3 F, | %106
 F,2 z2 D3 F, | F,2 z2 F,2 z2 |!p!!>(! D,8!>)! |!pp! _D,8- | D,8 | C,4 z4 | %112
 z2"_pizz."!pp! [F,,C,] z z4 | z8 | z8 | z2"_pizz."!pp! F z F, z z2 | z F z F, z4 | %117
 z F,A,C z F,A,C |"_arco" (F2 E2) (D2 C2) | (B,2 A,2 G,2 F,2) | _E,8- | E,8 | %122
"_espressivo"!<(! (_A,2 _D2) (_E2 F2)!<)! |!>(! (_E3 _D/B,/)!>)! B,4 |!<(! (_A,_D)DD _E2 F2!<)! | %125
 (A3 _G) _E4 |"^dim."!>(! _F6 _A2!>)! |!>(! =G6!>)! =A2 |[K:treble]!p! _b6 (ag) | b6 (_a_g) | %130
 (f=e).f.f ffff | (_gf)!<(!(!tenuto!g!tenuto!g) (!tenuto!=g!tenuto!g)(!tenuto!g!tenuto!g)!<)! | %132
 (_a!<(!f_d_A)[K:bass] (_A,F,_D,!<)!_A,,) |!f! (_A,,4 _G,,4) |!>(! (=E,,4 =D,,4)!>)! | %135
!p!!>(! _D,,8!>)! |!pp! _D,,8 | C,,6- C,, z | z8 | z2!p! (F2!<(! _G2 F2)!<)! | %140
[K:treble]!f!!>(! c'8!>)! |!p! (_agf_e) (cB/_d/ c2) | (cB/_d/ c2) (cB/d/ c2) | %143
[K:bass]!p! _A,G,/!<(!G,/ A,G,/G,/ A,G,/G,/ A,=E,/E,/!<)! | %144
 F,!<(!E,/E,/ F,E,/E,/ F,E,/E,/ F,!<)!B,,/B,,/ |!f! C,4 (C,,3 C,) | C,4 (C,,3 C,) | %147
!f! (!//-!_E,2 F,2) (!//-!E,2 F,2) | (_E,/F,/E,/F,/)!<(! (E,/_D,/C,/B,,/) B,,4!<)! | %149
 C,/C,/ z/ C,/ C,/C,/ z/ C,/ C,/C,/ z/ C,/ C,/C,/ z/ C,/ | %150
 C/C/ z/ C/!>(! C/C/ z/ C/ C/C/ z/ C/ C/C/ z/ C/!>)! |!p! _E8- | E2"_dim." (_DC _B,4) | %153
!>(! C8!>)! |!>(! C,8!>)! |!pp! (F,8 | B,,8) |!<(! (B,,4 A,,4)!<)! |!mf!!>(! (E,,4 F,,4)!>)! | %159
[K:treble]!p! (f2 g2)!<(! (a2 gf)!<)! | (f g2 f/d/)!>(! d4!>)! | (f2 g!<(!d) (cfac')!<)! | %162
"_cresc." b4 a4 |!f! (f2 gd) (cfac') | b4 a4 | (f2 gd)!<(! (cfac'-!<)! | %166
!ff! c')!>(!.a.f.c[K:bass] (A,!>)!"_dim."F, (3E,C,C,,) |!>(! F,,8-!>)! |!p!!>(! F,,8!>)! | %169
 F,,2 A,,2!p! (D,2 F,) z |"^dim." (A,,2 D,) z!p!!>(! A,,4-!>)! |!pp! (A,,2 C,,6) | %172
 F,,>F,, D,,/C,,/ z"_cresc." F,,>F,, D,,/C,,/ z | %173
 F,,/F,,/D,,/C,,/!<(! F,,/F,,/D,,/C,,/ F,,/F,,/D,,/C,,/ F,,/F,,/!<)!D,,/C,,/ | %174
!ff! F,,4!f! F,,/F,,/D,,/C,,/ F,,/F,,/D,,/C,,/ | F,,4 F,,/F,,/D,,/C,,/ F,,/F,,/D,,/C,,/ | %176
!<(! (C,,/F,,/A,,/C,/)!<)! (!>!C,>A,, F,,) z!ff! F,, z | !>!F,,6 z2 |] %178
[M:6/8]"_pizz."!p! D, z z D, z z | D, z z D, z z | D, z z D, z z |"_pizz." [D,A,] z z D, z z | %182
 [D,A,] z z A,, z z | [D,A,] z z!<(! [D,A,] z!<)! z |"^pizz." D,!p! z z!>(! D, z z!>)! | %185
 [D,A,] z!<(! z D, z z!<)! |!mf! C, z z [C,,G,,] z z | [C,,G,,]"_dim." z!>(! z C, z"^arco" z!>)! | %188
[K:treble]!pp! a3-!<(! agf/d/!<)! | d3-!<(! d/A/(A/d/)(d/e/)!<)! | (f2 d)!>(! Pc2 (A/c/)!>)! | %191
 d3 z!<(! (d/4A/4_B/4=c/4 (5:4:5d/4e/4f/4g/4^g/4)!<)! | a3-!>(! a(gf/d/)!>)! | %193
 d3-!<(! d/A/(A/d/)(e/f/)!<)! |!mf! (g2 f/e/)"_cresc." e2 (3(e/c/A/) |!>(! c3-!>)!!p! c z z | %196
[K:bass]!pp! ^C, z z"^pizz." C, z z | ^C, z z C, z z | ^C, z z C, z z | %199
"^pizz."!<(! ^C,"_molto cresc." z z C,zC,!<)! | F,F,, z!>(! B,, z B,,!>)! | %201
!p!!<(! D, z D, =B,,zB,,!<)! |"^pizz." C,z"^cresc."^C,!<(! D, z ^D,!<)! | %203
!mf! E,!<(! z z E, z!<)! E, |!f! F, z z"_dim."!>(! G, z z!>)! | %205
"^pizz."!>(! A, z z!>)!!p! =B, z B, | C z C"^dim."!>(! C z C!>)! |!pp! F, z C, z F,, z | %208
[K:treble]!p!"^arco" g2!<(! (f/e/) g2 (3(f/a/e/)!<)! | g3- g z g | %210
 (g2!<(! f/"_cresc."e/) g2 (((f/4a/4))!<)!(a/4e/4)) | g3-"_cresc." g!<(! ^g2!<)! | %212
!f! (ac')(b/a/) (gfe) |!>(! d3- d/A/(A/!>)!d/)(e/f/) | %214
!mf!"_cresc." a3- a/f/!<(!(f/g/) (a/c'/)!<)! |!f!!<(! !>!c'3 (d'!<)!!f!!<(!g'_b)!<)! | %216
 (b/a/!>(! c'2- c'/)(b/g/"^dim."_e/)(g/b/)!>)! |!>(! a3!>)!!p!!>(! (gfd)!>)! | %218
!>(! (c2- c/a/)!>)!!pp! a3 | a3- a z z |[K:bass]"^pizz."!mp! D, z z!<(! D, z D,/^F,/!<)! | %221
!f! C, z z!>(! C, z z!>)! |!p! D, z z!<(! D, z D,/^F,/!<)! |"^pizz." C, z z!>(! C, z z!>)! | %224
!p! B,, z!<(! z B,, z z!<)! | _E, z!>(! z E, z!>)! z |!pp! B,, z z B,, z z |!pp! _E, z z E, z z | %228
 _E, z z"_cresc." ^C,!<(! z z | D, z!<)! z D,A,,F,, | B,,"_cresc."F,,F, B,,!<(!F,,F, | %231
 B,,F,, z =B,,=B,!<)! z |!ff! [C,,C,] z z [C,,C,] z z | [C,,C,] z z [C,,C,] z"^dim." z | %234
 [C,,C,] z z"_dim." [C,,C,] z z | C, z z"_dim." C, z z | C, z z!p! A,, z z | %237
"_dim." G,, z z!pp! F,, z z | C, z z G,, z z | D, z z!<(! D, z D,/^F,/!<)! | %240
 C,!>(! z z C, z z!>)! |!pp! D, z z!<(! D, z D,/^F,/!<)! |"_cresc." C,!<(! z z C, z C,!<)! | %243
!ff! B,, z z B,, z z |!>(! _E, z z!>)! E, z z |!pp! B,, z z!>(! B,, z z!>)! |!pp! _E, z z E, z z | %247
"_cresc." _E, z z!<(! ^C, z z!<)! | D, z"^cresc." z D,A,,F,, | %249
 (B,,!<(!F,,)!tenuto!D, (B,,F,,)!tenuto!D,!<)! | B,,B, z"_cresc." E,,E, z |!f! F,, z z F, z z | %252
 F,, z z F, z z | F,, z z"_dim." F, z z | F,, z z!mp! F, z z | D, z z"_dim."!>(! G,, z z!>)! | %256
 A,, z z!>(! =B,, z B,,!>)! |!pp! C, z z _D, z z | C, z z ^C, z A,, | %259
[K:treble]"^arco"!p! a3- a(gf/d/) | d3- d/A/(A/d/)(d/e/) |!pp! (f2 d) (Pc2 A/c/) | %262
 d3- d!<(! (d/4A/4B/4c/4) (5:4:5(d/4e/4f/4g/4^g/4)!<)! | a3- a(gf/d/) | %264
 d3- d/!<(!A/(A/d/)(d/e/)!<)! |!f!!>(! f6-!>)! |!p!!>(! f3- f(e_e)!>)! |!pp! d3- d(cB/c/) | %268
 d3- d(cB/c/) |[K:bass] D3-!<(! D(A,G,/F,/)!<)! |!>(! D,3- D,(A,,G,,/F,,/)!>)! | %271
 (D,,A,,G,,/F,,/)!ppp! (D,,A,,G,,/F,,/) |"_morendo" D,,6- | D,,6 | !fermata!D,,6 |] %275
[M:3/4]!f! C z !>!F3 D | CD F2 z2 | C z !>!F3 D | CD A,2 z2 |!p! C,4 C,,2 | C,4 C,,2 | C,4 C,,2 | %282
 F,,2 z2 z2 | z6 | z2!ff! [D,A,][D,A,] [D,A,] z | z6 | z2 !>![F,C][F,C] [F,C] z |!pp! C4 C,2 | %288
 C4 C,2 | C4 C,2 | F,2 .D,.C, F,, z | z6 | z6 | z2!mf! [D,A,][D,A,] [D,A,] z | %294
 z2!>(! [F,C][F,C] [F,C]!>)! z |!p! !>!CD A,2 z2 | !>!CD A,2 z2 | !>!CD A,2 z2 | !>!CD A,2 z2 | %299
 !>!CD A,2 z2 | !>!CD A,2 z2 | !>!CD A,2 z2 | .F,2 .F,,2 z2 | z6 | z6 | z6 |!mf! C,D, A,,2 z2 | %307
!ff! (A,,2 F,,2) z C,, | (C,,2 G,,F,,) z F,, | (A,,2 F,,2 E,,D,, | F,,2) z2 F,,2 | %311
!ff! (A,,2 F,,2) z C,, | (C,,2 G,,F,,) z F,, | (A,,2 F,,2) (E,,D,, | F,,4) z2 |!mf! (F,2 !>!D,4) | %316
 (F,2 !>!D,4) | (F,2 !>!D,4) |!>(! (D,2 !>!F,4)!>)! |!p!!>(! C,6!>)! | C,6 |!>(! C,6!>)! | %322
"_Fine."!pp! !fermata!F,,6 ||[K:Ab] z6 | z6 | z6 | z6 | z6 | z6 | z6 | z6 |!mf!"_esspressivo" C6 | %332
 (F4 D2) | (C4 D2) | F6 | C6 | (F4 D2) | (C4 D2) | A,4 z2 |"_dim." A,6 | (B,4"_dim." A,2) | %341
!>(! (G,4 A,2) | C6!>)! |!p!!>(! A,6 | (B,4 A,2)!>)! |!pp! (F,6 | F,,4) z2 |!pp! C6 | (F4 D2) | %349
 (C4 D2) | F6 | C6 | (F4 D2) | (C4 D2) | A,6 |!f! !>!F,,F,, z2 !>!A,,A,, | !>!D,,D,, z2 !>!A,,A,, | %357
 !>!F,,F,, z2 !>!A,,A,, | !>!D,,D,, z2 !>!A,,A,, | !>!F,,F,, z2 !>!A,,A,, | %360
 !>!D,,D,, z2 !>!A,,A,, | !>!F,,F,, z2 !>!A,,A,, | !>!C,C, z2 !>!A,,A,, | %363
"_dim." !>!D,D,!>(! z2 D,D,!>)! | D,,"_dim."D,, z2 D,,D,, | D,,D,, z2!>(! D,,D,, | %366
 A,,A,, z2 A,,A,,!>)! |!p! C,C, z2!>(! C,C, | C,,C,, z2 C,,C,,!>)! | %369
!pp! F,,/F,,/ z F,,/F,,/ z F,,/F,,/ z | F,,/F,,/ z F,,/F,,/ z F,,/F,,/ z ||[K:F] C, z !>!F,3 D, | %372
 C,D, F,2 z2 | C, z !>!F,3 D, | C,D, A,,2 z2 |!p! (F,,2 G,,2 D,,E,,) | (F,,2 G,,2 D,,E,,) | %377
 (F,,2 G,,2 D,,E,,) | F,,2 z2 z2 | z6 | z2!p!"^pizz." DA, D,2 | z6 | z2 F,C, F,,2 | %383
 z2!pp! D,A,, D,,2 | z2 DA, D,2 | z2 D,A,, D,,2 | D,2 D,,2 z2 |!p!"^arco" C,D, F,2 z2 | %388
!mf! C,D, A,,2 z2 |!f! CD F2 z2 |!ff! CD A,2 z2 |!f! CD A,2 z2 | CD A,2 z2 | CD A,2 z2 | %394
 CD A,2 z2 | CD A,2 z2 | CD A,2 z2 | CD A,2 (G,F,) | .F,2 .F,,2 z2 | z2!f! DD D2 | %400
 z2!mf! F,F, F,2 | z2"_dim." D,D, D,2 | z2!p! F,,F,, F,,2 | (A,,2 F,,2) z C,, | %404
 (C,,2 G,,F,,) z F,, | (A,,2 F,,2) (E,,D,, | F,,2) z2 F,,2 | (A,,2 F,,2) z C,, | %408
 (C,,2 G,,F,,) z F,, | (A,,2 F,,2) (E,,D,,) | F,,4 z2 | (F,2 D,4) | (F,2 D,4) | (F,2 D,4) | %414
 (D,2 F,4) |!p! D6 |"^dim." D6 | D6 |!>(! (D2 C4)!>)! |!pp! F2 D3 C | A,2 F,2 D,2- | %421
 D,C, A,,3 G,, | !fermata!F,,6 ||[K:Ab]!pp! (C6 | F4 D2) | (C4 D2 | F4) z2 | C6 | F4 D2 | (C4 D2 | %430
 C4) z2 |!f! A,,z/G,,/G,,z/F,,/ F,,2 | A,,z/G,,/G,,z/F,,/ F,,2 | A,,z/G,,/G,,z/F,,/ F,,2 | %434
 A,,z/G,,/G,,z/F,,/ F,,2 | A,,z/G,,/G,,z/F,,/ F,,2 | A,,z/G,,/G,,z/F,,/ F,,2 | %437
 A,,z/G,,/G,,z/F,,/ F,,2 | C,z/B,,/B,,z/A,,/ A,,2 | F,,z/E,,/E,,z/D,,/ D,,2 | %440
 _F,,z/E,,/E,,z/D,,/ D,,2 | _F,,z/E,,/E,,z/D,,/"_dim." D,,2 | A,,z/G,,/G,,z/F,,/ F,,2 | %443
 F,z/D,/!>(! D,z/C,/ C,2 | D,z/C,/ C,z/=B,,/ B,,z/_B,,/!>)! |!p! B,,z/=A,,/ A,,z/_A,,/ A,,z/G,,/ | %446
 G,,z/F,,/ F,,2 z2 |!ppp! (3:2:1!/!C,,3 (3:2:1!/!F,,3 (3:2:1!/!G,,3 | %448
 (3:2:1!/!A,,3 (3:2:1!/!G,,3 (3:2:1!/!F,,3 | (3:2:1!/!A,,3 (3:2:1!/!C,3 (3:2:1!/!B,,3 | %450
 (3:2:1!/!A,,3 (3:2:1!/!G,,3 (3:2:1!/!F,,3 | (3:2:1!/!E,,3 (3:2:1!/!F,,3 (3:2:1!/!G,,3 | %452
 (3:2:1!/!A,,3 (3:2:1!/!B,,3 (3:2:1!/!=B,,3 | (3:2:1!/!C,3 (3:2:1!/!A,,3 (3:2:1!/!F,,3 | %454
 (6:4:1!/!A,,6 (3:2:1!/!A,,3 |!ff! !>!C,2 C,C, C,C, | !>!F,2 F,F, D,D, | !>!C,2 C,C, D,D, | %458
 !>!F,F, F,2 z2 | !>!C,2 C,C, C,C, | !>!F,2 F,F, D,D, | !>!C,2 C,C, D,D, | !>!A,,A,, A,,2 z2 | %463
 !>!A,,2 A,,A,,"_molto" A,,A,, |"_dim." !>!B,,2!>(! A,,A,, A,,A,, | !>!G,,2 G,,G,,!>)! A,,A,, | %466
!p! C,C, C,2!>(! z2 | A,,2 A,,A,, A,,A,,!>)! |!pp! B,,2 B,,B,, G,,G,, | F,,2 F,,F,, F,,F,, | %470
"_Da Capo al Fine." F,,4 z2 ||[K:F][M:2/4] z4 |"^pizz."!p! F,, z F, z | z4 | F,, z F, z | z4 | z4 | %477
"^pizz."!p! D,, z F,, z | A,, z D,F, | z4 | z4 | D,, z F,, z | A,, z .D,.F, | z4 | %484
"^arco"!p! D,2 z D, | C,2!<(! z2 | C,2 z C, | .B,,2 .A,,2!<)! |!mf! .A,,2!<(! .=B,,2 | %489
 .C,2 .=B,,2!<)! | =B,,2 C,2 |!f! C, z C,C,, | C, z C,C,, | C, z C,C,, | C, z C,C,, | %495
 F,,2"^dim." z C, | F,,2 z C, |!mf! F,,2 z C, |!mp! F,,2 z C, |!p! F,,2 z C, | F,,2 z C, | %501
 F,,2 z C, | F,,2 z C, | F,,2 z!pp! C, | F,2 z C, | F,2 z C, | F,2 z C, | F,,2 z B,, | F,,2 z B,, | %509
 A,,2 F,,C, | F,2 z C, | F,2 z C, | F,2 z C, | F,2 z"_arco" A,, | ^G,,E,,!<(! G,,E,, | %515
 A,,E,, A,,E,, | ^G,,E,,!<)! G,,E,, |!ff! [A,,E,A,] z [A,,E,A,] z | [A,,E,A,] z [A,,E,A,] z | %519
"_dim." A,, z!p! A,,!>(! z | A,,!>)! z z2 |!pp! F,,2 z C, | F,2 z C | F,2 z C, | F,,2 z C, | %525
 F,,2 z B,, | F,,2 z B,, | F,,2 z C, | F,,F,, z C, | F,F, z C, |!<(! F,,F,, z C,,!<)! | %531
!<(! F,,F,, z F,!<)! |!mf! =B,,G,, B,,G, | C,E,"_cresc."G,C | =B,G, B,G, |!ff! C z C,, z | %536
 C,, z C,, z | C,, z!mp! .C, z |!>(! .C, z .C, z!>)! |!pp! _A,, z"_pizz." C, z | _E, z _A,,A,, | %541
 C, z _E, z | _A,, z _A,A, | C, z _E, z | _A,, z _A,A, | _E, z _A,, z | _E, z _A,E, | C, z _E, z | %548
 G, z C,C, | _E, z G, z | C, z C,C,, | C, z G, z | C, z C,C,, | _E,, z B,, z | _E, z _E,,E, | %555
 B,, z _E, z | _E,, z B,,_E, | _A,, z C, z | _E, z _A,,A,, | C, z _E, z | _A,, z _A,A, | %561
 _E, z C, z | _A,, z _A, z | B,, z _D, z | B,, z _D,,D,, | _E,, z _E, z | C, z _A,,C, | %567
!>(! _E,, z _E, z | _E,, z"_arco" _E,!>)!E, |!pp! (_A,,>!p!B,, A,,)._E,, | (_A,,>B,, A,,)._E,, | %571
 (_A,,>B,, A,,)._E,, | (_A,,>B,, A,,)._E,, | G,,4- | G,,4- | G,,4- | G,,4 | (!//-!_B,,2 _D,2) | %578
 (!//-!B,,2 _D,2) | (!//-!B,,2 _D,2) | (!//-!B,,2 _D,2) | C,C,, z C, | C,C,, z C, | %583
!<(! C,C,, z C, | C,C,, z C,!<)! |!f! [C,,C,] z [C,,C,] z | [C,,C,] z [C,,C,] z | %587
 [C,,C,] z [C,,C,] z | [C,,C,] z [C,,C,] z | !/!C,!>(!!/!_D,!/!C,!/!D, | %590
 !/!C,!/!=B,,!/!C,!/!_B,,!>)! |!p! !/!_A,,!>(!!/!B,,!/!A,,!/!B,, | !/!_A,,!/!G,,!/!A,,!>)!!/!G,, | %593
!pp! F,,2 z C, | F,2 z C, | F,2 z C, | F,,2 z A,, | F,,2 z B,, | F,,2 z B,, | F,,2 z C, | %600
 F,F, z"^cresc." C, |!<(! F,F, z C, | F,F, z!<)! C, | F,F, z!mf! F, | ^C, z C,>A,, | %605
!<(! D, z D,>D, | E, z E,>=C, | F, z F,>F,!<)! |!f! G, z G,>_A, | G, z G,>_A, | %610
 G, z _A,"^cresc." z | G, z _A, z |!<(! G, z G, z | G, z!<)! G, z |!<(! !/!C,!/!B,,!/!=A,,!/!G,, | %615
 !/!F,,!/!=E,,!/!=D,,!/!C,,!<)! | F,, z!ff! !>!FD | !>!CA, !>!F,D, | !>!D,>D, D,D, | D, z !>!F._D | %620
 !>!C._A, !>!F,._D, | _D, z z D, | _D,>D, D,"_dim."D, |!p! _D, z z _D,, |!>(! _D,,>D,, D,,D,,!>)! | %625
 _D,, z z2 | z4 | z4 | z4 | z4 | z4 | z4 | z4 |!pp! (_D,4 | B,,4 | _A,,4 | G,,4) | (_G,,2 F,,2 | %638
 =E,,2 _E,,2 | =D,,2 _D,,2 | C,,2 C,2 | F,,) z z2 | z2 z!mf! B,, | F,,2 z2 | z2 z B,, | %645
"_dim." F,, z z B,, | F,, z z B,, | F,, z z2 | z4 ||!pp! (A,4 |!<(! F,4)!<)! |!>(! (C,4!>)! | %652
 D,4) |!<(! (C,4!<)! | =B,,4) | (C,2!>(! D,2!>)! | E,4) |!pp! (A,4 | F,4) |!<(! (C,4!<)! | D,4) | %661
!<(! (E,4!<)! | ^G,4) |!p! (A,4 |!>(! D4)!>)! |!pp! (3A,A,A,!<(! (A,2-!<)! | A,4 | %667
!>(! A,,2)!>)! z2 | z4 |!mp!"_molto espressivo" (A,4 |!<(! D4)!<)! | E4 |!>(! (D2 A,2)!>)! | %673
!<(! (A,2 E2- | E2!<)! D2) | (C4- |!>(! C2 =B,2)!>)! |!p! A,4 |!<(! (!tenuto!D2 !tenuto!D2)!<)! | %679
 (F2 E2-) | E2 (DA,) | (A,2!<(! E2- | E2!<)! D2) |!>(! (3(C=B,A,)!>)!!p! A,2- | %684
!>(! A,2 =B,=G,!>)! |!pp! !//!A,4 | !//!A,4 | !//!A,4 | !//!A,4 | E, z E, z | E,,>E,, E,, z | %691
 E, z E, z | E,,>E,, E,, z | E, z E, z | E,,>E,, E,, z | E, z E, z | E,,>E,, E,, z | E, z .E,.E,, | %698
"_cresc." !>!E,>E, .E,.E,, | E,>E, E,E, |!p! F,F, ^F,!<(!F, | G,G,, G,G,, | G,G,, G,G,, | %703
 G,G,,!<)!!ff! G,G,, | F,, z"^pizz." z!mp! C, | F,2 z C, | F,2 z C, | F,2 z C, | F,,2 z B,, | %709
 F,,2 z B,, | A,, z F,,C, | F,2 z C, | F,2 z C, | F,2 z C, | F,2 z"_arco" A,, | %715
!mf! ^G,,E,, G,,E,, |"_cresc." A,,E,, A,,E,, |!<(! ^G,,E,, G,,!<)!E,, |!f! A,, z [A,,E,] z | %719
 [A,,E,] z [A,,E,] z | .F,.C, .F,!>(!.C, | .F,.C, .F,.C,!>)! |!ppp! _D,4- | D,4- | D,4- | D,4 | %726
 (B,,2 _G,,2- |!pp! G,,2 B,,2) | _D,4 | _D,,4- | (D,,4 | _D,4 | _D4) | _E, z z2 | z2 .C,.B,, | %735
 _E,, z z2 | z2 (C!>(!B, | _E,)!>)! z z2 | z2 (_D!>(!C | _E,)!>)! z z2 | E,"_cresc." z (3E,E,E, | %741
 E,!<(! z (3E,E,E, | F, z (3F,F,!<)!F, | B,, z (3B,,"_cresc."B,,B,, | =B,,!<(! z (3B,,B,,B,, | %745
 =B,, z (3B,,!<)!B,,B,, |!f! (C,A,,C,,).C, |!>(! (C,"^dim."A,,C,,).C, | (C,A,,C,,)!>)!.C, | %749
 (C,A,,C,,).C, |!p! F,,4- | F,,4- | F,,4- | F,,4- |!<(! F,,4- | F,,4-!<)! |!>(! F,,4-!>)! | F,,4 | %758
!pp! A,,4- | A,,4- | A,,4- | A,,4- |!<(! A,,4- | A,,4!<)! | G,,4- |!>(! G,,4!>)! | %766
!p! (F,2!>(! E,2 | D,2!>)! E,2) |!pp! F,2 z2 |"^pizz." F,, z A,,C, | F, z z2 |!<(! F, z C, z | %772
 A,, z F,, z | A,, z C,F,!<)! | B,, z z2 |!>(! B,, z G,,B,,!>)! | C, z z2 |!p! C, z A,,F,, | %778
!>(! C,, z!>)! C, z | C,, z C, z |!p! F,, z"^arco" F,F,, | F,, z F,F,, | F,, z F,F,, | %783
 F,, z F,F,, |"_più cresc." F,, z F,F,, | F,, z F,F,, | F,, z F,F,, |!<(! F,, z F,F,,!<)! | %788
!f! .F,,._A,, !>!_D,,2 | !>!_A,,2!<(! !>!_D,2 | !>!_A,2 !>!_D,2!<)! |!ff! (3(C,=A,,).F,, C,, z | %792
 (3(C,=A,,).F,, C,, z | (3(C,=A,,).F,, C,, z | (3(C,=A,,).F,, .C,,.C, | F,,2!>(! (3F,,F,,F,,!>)! | %796
 F,,2 (3F,,F,,F,, | F,,2 (3F,,F,,F,, | F,,2 (3F,,F,,F,, | F,,2 (3F,,F,,F,, | F,,2 (3F,,F,,F,, | %801
 F,,2!<(! (3F,,F,,F,, | F,,2 (3F,,F,,!<)!F,, | _D,,4 | =D,,4 |!f! !>!D,,2 !>!=E,,2 | %806
 !>!F,,2 !>!^F,,2 | !>!G,,2 !>!A,,2 | !>!B,,2 !>!_D,2 | C,C,, C,C,, | C,C,, C,C,, | C,C,, C,C,, | %812
 C,C,, C,C,, |!ff! F,,2 z2 | !>!A,,2 z2 | !>!D,2 z2 | !>!A,,2 z2 | !>!D,2 z2 | !>!A,,2 z2 | %819
 !>!D,2 !>!_D,2 | !>!C,2 !>!C,,2 | F,,2 z!ff! F,, | A,,2 z A,, | D,2 z D, | A,,2 z A,, | D,2 z D, | %826
 A,,2 z A,, | !>!=D,2 !>!_D,2 | !>!F,.C, !>!C,.C,, | !>!=D,2 !>!_D,2 | !>!F,C, !>!C,C,, | %831
 !>!D,2 _D,2 | !>!F,C, !>!C,C,, | .F,.C, .C,.C,, | .F,.C, .C,.C,, | .F,.C, .C,.C,, | %836
 .F,.C, .C,.C,, |!<(! (6:4:1!/!F,,6 | (6:4:1!/!F,,6 | (6:4:1!/!F,,6!<)! |!<(! (6:4:1!/!F,,6 | %841
 (3:2:1!/!F,,3!<)! (3:2:1!/!F,3 | (6:4:1!/!F,6 | _D,2 z2 | _D,2 z2 | C,2 z2 | E,,2 z2 | F,, z F>D | %848
 !>!C>A, !>!F,>D, | F, z F,,>F,, | !>!F,,4 | F,,4 | !fermata!F,,4 |] %853
V:8
 x8 | x8 |: x8 | x8 | x8 | x8 | x8 | x8 | x8 | x8 | x8 | x8 | x8 | x8 | x8 | x8 | x8 | x8 | x8 | %19
 x8 | x8 | x8 | x8 | x8 | x8 | x8 | x8 | x8 | x8 | x8 | x8 | x8 | x8 | x8 | x8 | x8 | x8 | x8 | %38
 x8 | x8 | x8 | x8 | x8 | x8 | x8 | x8 | x8 | x8 | D,8- | D,4 x4 | x8 | x8 | x8 | x8 | x8 | x8 | %56
 x8 | x8 | x8 | x8 | x8 | x8 | x8 :| x8 | x8 | x8 | x8 | x8 | x8 | x8 | x8 | x8 | x8 | x8 | x8 | %75
 x8 | x8 | x8 | x8 | x8 | x8 | x8 | x8 | x8 | x8 | x8 | x8 | x8 | x8 | x8 | x8 | x8 | x8 | x8 | %94
 x8 | x8 | x8 | x8 | x8 | x8 | x8 | x8 | x8 | x8 | x8 | x8 | x8 | x8 | x8 | x8 | x8 | x8 | x8 | %113
 x8 | x8 | x8 | x8 | x8 | x8 | x8 | x8 | x8 | x8 | x8 | x8 | x8 | x8 | x8 |[K:treble] x8 | x8 | %130
 x8 | x8 | x4[K:bass] x4 | x8 | x8 | x8 | x8 | x8 | x8 | x8 |[K:treble] x8 | x8 | x8 |[K:bass] x8 | %144
 x8 | x8 | x8 | x8 | x8 | x8 | x8 | x8 | x8 | x8 | x8 | x8 | x8 | x8 | x8 |[K:treble] x8 | x8 | %161
 x8 | x8 | x8 | x8 | x8 | x4[K:bass] x4 | x8 | x8 | x8 | x8 | x8 | x8 | x8 | x8 | x8 | x8 | x8 |] %178
[M:6/8] x6 | x6 | x6 | x6 | x6 | x6 | x6 | x6 | x6 | x6 |[K:treble] x6 | x6 | x6 | x6 | x6 | x6 | %194
 x6 | x6 |[K:bass] x6 | x6 | x6 | x6 | x6 | x6 | x6 | x6 | x6 | x6 | x6 | x6 |[K:treble] x6 | x6 | %210
 x6 | x6 | x6 | x6 | x6 | x6 | x6 | x6 | x6 | x6 |[K:bass] x6 | x6 | x6 | x6 | x6 | x6 | x6 | x6 | %228
 x6 | x6 | x6 | x6 | x6 | x6 | x6 | x6 | x6 | x6 | x6 | x6 | x6 | x6 | x6 | x6 | x6 | x6 | x6 | %247
 x6 | x6 | x6 | x6 | x6 | x6 | x6 | x6 | x6 | x6 | x6 | x6 |[K:treble] x6 | x6 | x6 | x6 | x6 | %264
 x6 | x6 | x6 | x6 | x6 |[K:bass] x6 | x6 | x6 | x6 | x6 | x6 |][M:3/4] x6 | x6 | x6 | x6 | x6 | %280
 x6 | x6 | x6 | x6 | x6 | x6 | x6 | x6 | x6 | x6 | x6 | x6 | x6 | x6 | x6 | x6 | x6 | x6 | x6 | %299
 x6 | x6 | x6 | x6 | x6 | x6 | x6 | x6 | x6 | x6 | x6 | x6 | x6 | x6 | x6 | x6 | x6 | x6 | x6 | %318
 x6 | x6 | x6 | x6 | x6 ||[K:Ab] x6 | x6 | x6 | x6 | x6 | x6 | x6 | x6 | x6 | x6 | x6 | x6 | x6 | %336
 x6 | x6 | x6 | x6 | x6 | x6 | x6 | x6 | x6 | x6 | x6 | x6 | x6 | x6 | x6 | x6 | x6 | x6 | x6 | %355
 x6 | x6 | x6 | x6 | x6 | x6 | x6 | x6 | x6 | x6 | x6 | x6 | x6 | x6 | x6 | x6 ||[K:F] x6 | x6 | %373
 x6 | x6 | x6 | x6 | x6 | x6 | x6 | x6 | x6 | x6 | x6 | x6 | x6 | x6 | x6 | x6 | x6 | x6 | x6 | %392
 x6 | x6 | x6 | x6 | x6 | x6 | x6 | x6 | x6 | x6 | x6 | x6 | x6 | x6 | x6 | x6 | x6 | x6 | x6 | %411
 x6 | x6 | x6 | x6 | x6 | x6 | x6 | x6 | x6 | x6 | x6 | x6 ||[K:Ab] x6 | x6 | x6 | x6 | x6 | x6 | %429
 x6 | x6 | x6 | x6 | x6 | x6 | x6 | x6 | x6 | x6 | x6 | x6 | x6 | x6 | x6 | x6 | x6 | x6 | x6 | %448
 x6 | x6 | x6 | x6 | x6 | x6 | x6 | x6 | x6 | x6 | x6 | x6 | x6 | x6 | x6 | x6 | x6 | x6 | x6 | %467
 x6 | x6 | x6 | x6 ||[K:F][M:2/4] x4 | x4 | x4 | x4 | x4 | x4 | x4 | x4 | x4 | x4 | x4 | x4 | x4 | %484
 x4 | x4 | x4 | x4 | x4 | x4 | x4 | x4 | x4 | x4 | x4 | x4 | x4 | x4 | x4 | x4 | x4 | x4 | x4 | %503
 x4 | x4 | x4 | x4 | x4 | x4 | x4 | x4 | x4 | x4 | x4 | x4 | x4 | x4 | x4 | x4 | x4 | x4 | x4 | %522
 x4 | x4 | x4 | x4 | x4 | x4 | x4 | x4 | x4 | x4 | x4 | x4 | x4 | x4 | x4 | x4 | x4 | x4 | x4 | %541
 x4 | x4 | x4 | x4 | x4 | x4 | x4 | x4 | x4 | x4 | x4 | x4 | x4 | x4 | x4 | x4 | x4 | x4 | x4 | %560
 x4 | x4 | x4 | x4 | x4 | x4 | x4 | x4 | x4 | x4 | x4 | x4 | x4 | x4 | x4 | x4 | x4 | x4 | x4 | %579
 x4 | x4 | x4 | x4 | x4 | x4 | x4 | x4 | x4 | x4 | x4 | x4 | x4 | x4 | x4 | x4 | x4 | x4 | x4 | %598
 x4 | x4 | x4 | x4 | x4 | x4 | x4 | x4 | x4 | x4 | x4 | x4 | x4 | x4 | x4 | x4 | x4 | x4 | x4 | %617
 x4 | x4 | x4 | x4 | x4 | x4 | x4 | x4 | x4 | x4 | x4 | x4 | x4 | x4 | x4 | x4 | x4 | x4 | x4 | %636
 x4 | x4 | x4 | x4 | x4 | x4 | x4 | x4 | x4 | x4 | x4 | x4 | x4 || x4 | x4 | x4 | x4 | x4 | x4 | %655
 x4 | x4 | x4 | x4 | x4 | x4 | x4 | x4 | x4 | x4 | x4 | x4 | x4 | x4 | x4 | x4 | x4 | x4 | x4 | %674
 x4 | x4 | x4 | x4 | x4 | x4 | x4 | x4 | x4 | x4 | x4 | x4 | x4 | x4 | x4 | x4 | x4 | x4 | x4 | %693
 x4 | x4 | x4 | x4 | x4 | x4 | x4 | x4 | x4 | x4 | x4 | x4 | x4 | x4 | x4 | x4 | x4 | x4 | x4 | %712
 x4 | x4 | x4 | x4 | x4 | x4 | x4 | x4 | x4 | x4 | x4 | x4 | x4 | x4 | x4 | x4 | x4 | x4 | x4 | %731
 x4 | x4 | x4 | x4 | x4 | x4 | x4 | x4 | x4 | x4 | x4 | x4 | x4 | x4 | x4 | x4 | x4 | x4 | x4 | %750
 x4 | x4 | x4 | x4 | x4 | x4 | x4 | x4 | x4 | x4 | x4 | x4 | x4 | x4 | x4 | x4 | x4 | x4 | x4 | %769
 x4 | x4 | x4 | x4 | x4 | x4 | x4 | x4 | x4 | x4 | x4 | x4 | x4 | x4 | x4 | x4 | x4 | x4 | x4 | %788
 x4 | x4 | x4 | x4 | x4 | x4 | x4 | x4 | x4 | x4 | x4 | x4 | x4 | x4 | x4 | x4 | x4 | x4 | x4 | %807
 x4 | x4 | x4 | x4 | x4 | x4 | x4 | x4 | x4 | x4 | x4 | x4 | x4 | x4 | x4 | x4 | x4 | x4 | x4 | %826
 x4 | x4 | x4 | x4 | x4 | x4 | x4 | x4 | x4 | x4 | x4 | x4 | x4 | x4 | x4 | x4 | x4 | x4 | x4 | %845
 x4 | x4 | x4 | x4 | x4 | x4 | x4 | x4 |] %853

